!!!!SEGMENT: pl-cz--iii-560--001-004_raszek-waclaw--missa-in-d-cum-sancto-spiritu.krn
!!!cenid: 17xx:1050
!!!COM: Raszek, Wacław
!!!COM-rismid: pe30020314
!!!CDT: <1848->1848
!!!CNT:
!!!OPR: Missa in D
!!!OTL: Cum Sancto spiritu
!!!OMV: 004
!!!PDT:
!!!AGN: Sacred; Mass
!!!SMS-siglum: PL-CZ
!!!SMS-shelfmark: III-560
!!!SMS-shelfwork: 001-004 M
!!!SMS-variant:
!!!SMS-altvar:
!!!NIFC-rismid: 300001046
!!!URL-scan: http://repozytorium.nifc.pl/skany/pl-cz-nut--iii-560
!!!ONB-nifc: UWAGA: części Mszy: Kyrie, Gloria, Domine Deus, Cum Sancto spiritu, Credo, Et incarnatus, Et resurrexit, Sanctus, Pleni, Benedictus, Agnus Dei, Dona nobis
**kern	**dynam	**kern	**dynam	**kern	**dynam	**kern	**dynam	**kern	**text	**kern	**text	**kern	**text	**dynam	**kern	**text	**dynam	**kern	**dynam	**kern	**dynam	**kern	**dynam	**kern	**dynam
*	*	*group4	*	*group4	*	*group4	*	*group3	*	*group3	*	*group3	*	*	*group3	*	*	*group2	*	*group2	*	*group1	*	*group1	*
*part12	*part12	*part11	*part11	*part10	*part10	*part9	*part9	*part8	*part8	*part7	*part7	*part6	*part6	*part6	*part5	*part5	*	*part4	*part4	*part3	*part3	*part2	*part2	*part1	*part1
*staff12	*	*staff11	*	*staff10	*	*staff9	*	*staff8	*staff8	*staff7	*staff7	*staff6	*staff6	*	*staff5	*staff5	*	*staff4	*	*staff3	*	*staff2	*	*staff1	*
*I"Organo.	*	*I"Alto Viola Obligat	*	*I"Violino Secundo	*	*I"Violino Primo.	*	*I"Baſſo.	*	*I"Tenore.	*	*I"Alto.	*	*	*I"Canto.	*	*	*I"Corno 2do in D#	*	*I"Corno 1mo in D#	*	*I"Oboe Secondo	*	*I"Oboe Primo	*
*I'org	*	*I'vla	*	*I'vl 2	*	*I'vl 1	*	*I'B	*	*I'T	*	*I'A	*	*	*I'S	*	*	*I'cor 2 in D#	*	*I'cor 1 in D#	*	*I'ob 2	*	*I'ob 1	*
*Iorgan	*	*Iviola	*	*Ivioln	*	*Ivioln	*	*Ibass	*	*Itenor	*	*Ialto	*	*	*Isoprn	*	*	*Icor	*	*Icor	*	*Ioboe	*	*Ioboe	*
*ICklav	*	*ICstr	*	*ICstr	*	*ICstr	*	*ICvox	*	*ICvox	*	*ICvox	*	*	*ICvox	*	*	*ICbras	*	*ICbras	*	*ICww	*	*ICww	*
*clefF4	*	*clefC3	*	*clefG2	*	*clefG2	*	*clefF4	*	*clefC4	*	*clefC3	*	*	*clefC1	*	*	*clefG2	*	*clefG2	*	*clefG2	*	*clefG2	*
*	*	*	*	*	*	*	*	*	*	*	*	*	*	*	*	*	*	*ITrd6c10	*	*ITrd6c10	*	*	*	*	*
*k[f#c#]	*	*k[f#c#]	*	*k[f#c#]	*	*k[f#c#]	*	*k[f#c#]	*	*k[f#c#]	*	*k[f#c#]	*	*	*k[f#c#]	*	*	*k[f#c#]	*	*k[f#c#]	*	*k[f#c#]	*	*k[f#c#]	*
*D:	*	*D:	*	*D:	*	*D:	*	*D:	*	*D:	*	*D:	*	*	*D:	*	*	*D:	*	*D:	*	*D:	*	*D:	*
*M4/4	*	*M4/4	*	*M4/4	*	*M4/4	*	*M4/4	*	*M4/4	*	*M4/4	*	*	*M4/4	*	*	*M4/4	*	*M4/4	*	*M4/4	*	*M4/4	*
*met(c)	*	*met(c)	*	*met(c)	*	*met(c)	*	*met(c)	*	*met(c)	*	*met(c)	*	*	*met(c)	*	*	*met(c)	*	*met(c)	*	*met(c)	*	*met(c)	*
*all\left or middle	*	*	*	*all\middle	*	*all\left or middle	*	*all\left or middle	*	*all\left or middle	*	*all\left or middle	*	*	*all\left or middle	*	*	*all\middle	*	*all\right	*	*all\right	*	*all\left or middle	*
*2\right	*	*2\right	*	*2\right	*	*2\right	*	*2\right	*	*2\right	*	*2\right	*	*	*2\right	*	*	*2\right	*	*2\right	*	*2\right	*	*2\right	*
=1	=1	=1	=1	=1	=1	=1	=1	=1	=1	=1	=1	=1	=1	=1	=1	=1	=1	=1	=1	=1	=1	=1	=1	=1	=1
*tremolo	*	*tremolo	*	*tremolo	*	*tremolo	*	*	*	*	*	*	*	*	*	*	*	*tremolo	*	*	*	*	*	*	*
!	!	!	!	!	!	!	!	!	!	!	!	!	!	!	!	!	!	!LO:TX:t=P:problem=oznaczenie metrum z kropką	!	!LO:TX:t=P:problem=oznaczenie metrum z kropką	!	!	!	!	!
!LO:TX:a:i:t=	!	!	!	!	!	!	!	!	!	!	!	!	!	!	!LO:TX:t=P:problem=kolejność znaków&colon;f#cc#	!	!	!	!	!	!	!	!	!	!
!LO:TX:i:a:t=Adagio. Tutti.	!	!LO:TX:i:a:t=ada&colon; Tutti	!	!LO:TX:i:a:t=Adagio,	!	!LO:TX:i:a:t=Adagio	!	!LO:TX:i:a:t=adag&colon;	!	!LO:TX:i:a:t=Adag&colon;	!	!LO:TX:i:a:t=Ad&colon;	!	!	!LO:TX:i:a:t=adag	!	!	!	!	!LO:TX:i:a:t=in d	!	!LO:TX:i:a:t=adagio	!	!LO:TX:t=P:problem=oznaczenie metrum z kropką	!
!	!	!LO:TX:t=P:problem=oznaczenie metrum z kropką	!	!LO:TX:t=P:problem=oznaczenie metrum z kropką	!	!	!LO:DY:b:t=for	!	!	!	!	!	!	!	!	!	!	!	!	!	!	!	!	!	!
8C#X/L	.	8c#X\L	.	8a/L	.	8ee\L	f	2C#X/	Cum	2e\	Cum	2a\	Cum	.	2ee\	Cum	.	8A/L	.	8a\L	.	1a	.	2ee\	.
8C#X/	.	8c#X\	.	8a/	.	8ee\	.	.	.	.	.	.	.	.	.	.	.	8A/	.	8a\	.	.	.	.	.
8C#X/	.	8c#X\	.	8a/	.	8ee\	.	.	.	.	.	.	.	.	.	.	.	8A/	.	8a\	.	.	.	.	.
8C#X/J	.	8c#X\J	.	8a/J	.	8ee\J	.	.	.	.	.	.	.	.	.	.	.	8A/J	.	8a\J	.	.	.	.	.
*	*	*	*	*	*	*	*	*	*	*	*	*	*	*	*	*	*	*Xtremolo	*	*	*	*	*	*	*
!	!	!	!	!	!	!	!	!	!	!	!	!	!	!	!LO:SIC:v:s=2ffn\	!	!	!	!	!	!	!	!	!	!
8D\L	.	8d\L	.	8a/L	.	8ffn\L	.	2D/	san-	4d\	S[an]-	2a\	San-	.	2ff#\	San-	.	4A/	.	4a\	.	.	.	2ffn\	.
8D\	.	8d\	.	8a/	.	8ffn\	.	.	.	.	.	.	.	.	.	.	.	.	.	.	.	.	.	.	.
!	!	!	!	!	!	!	!	!	!	!	!	!	!	!	!	!	!	!	!	!LO:TX:a:i:t=Tutty	!	!	!	!	!
8D\	.	8d\	.	8a/	.	8ffn\	.	.	.	4A\	-cto	.	.	.	.	.	.	4r	.	4r	.	.	.	.	.
8D\J	.	8d\J	.	8a/J	.	8ffn\J	.	.	.	.	.	.	.	.	.	.	.	.	.	.	.	.	.	.	.
=2	=2	=2	=2	=2	=2	=2	=2	=2	=2	=2	=2	=2	=2	=2	=2	=2	=2	=2	=2	=2	=2	=2	=2	=2	=2
*	*	*	*	*	*	*	*	*	*	*	*	*	*	*	*	*	*	*tremolo	*	*tremolo	*	*	*	*	*
8E\L	.	8g\L	.	8a/L	.	8cc#X\L	.	2E\	-cto	4.G/	Spi-	2a\	-cto	.	2cc#X\	-cto	.	8A/L	.	8A/L	.	1a	.	2cc#\	.
8E\	.	8g\	.	8a/	.	8cc#X\	.	.	.	.	.	.	.	.	.	.	.	8A/	.	8A/	.	.	.	.	.
8E\	.	8g\	.	8a/	.	8cc#X\	.	.	.	.	.	.	.	.	.	.	.	8A/	.	8A/	.	.	.	.	.
8E\J	.	8g\J	.	8a/J	.	8cc#X\J	.	.	.	8G/	-ri-	.	.	.	.	.	.	8A/J	.	8A/J	.	.	.	.	.
*	*	*	*	*	*	*	*	*	*ij	*	*	*	*ij	*	*	*ij	*	*Xtremolo	*	*Xtremolo	*	*	*	*	*
!	!	!LO:SIC:v:s=8fn\L	!	!	!	!	!	!	!	!	!	!	!	!	!	!	!	!	!	!LO:TX:i:a:t=adaio	!	!	!	!	!
8Fn\L	.	8f#\L	.	8a/L	.	8dd\L	.	4Fn\	san-	4A/	-tu	4a\	San-	.	4dd\	San-	.	4A/	.	4B/	.	.	.	2dd\	.
!	!	!LO:SIC:v:s=8fn\	!	!	!	!	!	!	!	!	!	!	!	!	!	!	!	!	!	!	!	!	!	!	!
8Fn\	.	8f#\	.	8a/	.	8dd\	.	.	.	.	.	.	.	.	.	.	.	.	.	.	.	.	.	.	.
!	!	!LO:SIC:v:s=8fn\	!	!	!	!	!	!	!	!	!	!	!	!	!	!	!	!LO:TX:i:a:t=adagio	!	!	!	!	!	!	!
8Fn\	.	8f#\	.	8a/	.	8dd\	.	4F\	-cto	4A/	cum	4a\	-cto	.	4dd\	-cto	.	4r	.	4r	.	.	.	.	.
!	!	!LO:SIC:v:s=8fn\J	!	!	!	!	!	!	!	!	!	!	!	!	!	!	!	!	!	!	!	!	!	!	!
8Fn\J	.	8f#\J	.	8a/J	.	8dd\J	.	.	.	.	.	.	.	.	.	.	.	.	.	.	.	.	.	.	.
*Xtremolo	*	*	*	*	*	*	*	*	*Xij	*	*	*	*Xij	*	*	*Xij	*	*	*	*	*	*	*	*	*
=3	=3	=3	=3	=3	=3	=3	=3	=3	=3	=3	=3	=3	=3	=3	=3	=3	=3	=3	=3	=3	=3	=3	=3	=3	=3
*	*	*	*	*	*	*	*	*	*	*	*	*	*	*	*	*	*	*tremolo	*	*tremolo	*	*	*	*	*
8G#X\L	.	8B/L	.	8e/L	.	8dd\L	.	4.G#X\	Spi-	2B\	san-	4.e\	Spi-	.	4.dd\	Spi-	.	8e\L	.	8e\L	.	2bn\	.	2dd\	.
8G#\	.	8B/	.	8e/	.	8dd\	.	.	.	.	.	.	.	.	.	.	.	8e\	.	8e\	.	.	.	.	.
8G#\	.	8B/	.	8e/	.	8dd\	.	.	.	.	.	.	.	.	.	.	.	8e\	.	8e\	.	.	.	.	.
8G#\J	.	8B/J	.	8e/J	.	8dd\J	.	8G#\	-ri-	.	.	8e\	-ri-	.	8dd\	-ri-	.	8e\J	.	8e\J	.	.	.	.	.
*	*	*Xtremolo	*	*	*	*	*	*	*	*	*	*	*	*	*	*	*	*	*	*Xtremolo	*	*	*	*	*
*	*	*	*	*	*	*	*	*	*	*	*	*	*	*	*	*	*	*Xtremolo	*	*	*	*	*	*	*
*	*	*	*	*	*	*Xtremolo	*	*	*	*	*	*	*	*	*	*	*	*	*	*	*	*	*	*	*
*	*	*	*	*Xtremolo	*	*	*	*	*	*	*	*	*	*	*	*	*	*	*	*	*	*	*	*	*
!	!	!	!	!	!	!	!LO:DY:b:t=pia.	!	!	!	!	!	!	!	!	!	!	!	!	!	!	!	!	!	!
8A\	.	8A/	.	8e/	.	16cc#\LL	p	8A\	-tu	8A\	-cto	8e\	-tu	.	4cc#X\	-tu	.	8A/	.	8e\	.	8a\	.	8cc#X\	.
.	.	.	.	.	.	16ee\	.	.	.	.	.	.	.	.	.	.	.	.	.	.	.	.	.	.	.
8r	.	8r	.	8r	.	16a\	.	8r	.	8r	.	8r	.	.	.	.	.	8r	.	8r	.	8r	.	8r	.
.	.	.	.	.	.	16a\JJ	.	.	.	.	.	.	.	.	.	.	.	.	.	.	.	.	.	.	.
4r	.	4r	.	4r	.	16g#X/LL	.	4r	.	4r	.	4r	.	.	4r	.	.	4r	.	4r	.	4r	.	4r	.
.	.	.	.	.	.	16a/	.	.	.	.	.	.	.	.	.	.	.	.	.	.	.	.	.	.	.
.	.	.	.	.	.	16b/	.	.	.	.	.	.	.	.	.	.	.	.	.	.	.	.	.	.	.
.	.	.	.	.	.	16a/JJ	.	.	.	.	.	.	.	.	.	.	.	.	.	.	.	.	.	.	.
!	!	!LO:LB:g=original	!	!	!	!	!	!	!	!	!	!	!	!	!	!	!	!	!	!	!	!	!	!	!
=4	=4	=4	=4	=4	=4	=4	=4	=4	=4	=4	=4	=4	=4	=4	=4	=4	=4	=4	=4	=4	=4	=4	=4	=4	=4
!	!LO:DY:a:t=pp&colon;	!	!	!	!	!	!	!LO:TX:a:t=2	!	!	!	!	!	!	!LO:TX:a:t=2	!	!	!LO:TX:a:t=2	!	!LO:TX:a:t=2	!	!LO:TX:a:t=2	!	!LO:TX:a:t=2	!
!	!	!	!	!	!LO:DY:b:t=p&colon;	!	!	!	!	!	!	!	!	!	!	!	!	!	!	!	!	!	!	!	!
8B\	pp	8B/	.	8d/	p	16r	.	1r	.	1r	.	1r	.	.	1r	.	.	1r	.	1r	.	1r	.	1r	.
.	.	.	.	.	.	16g#X|/LL	.	.	.	.	.	.	.	.	.	.	.	.	.	.	.	.	.	.	.
8r	.	8r	.	8r	.	(16a/	.	.	.	.	.	.	.	.	.	.	.	.	.	.	.	.	.	.	.
.	.	.	.	.	.	16g#/JJ)	.	.	.	.	.	.	.	.	.	.	.	.	.	.	.	.	.	.	.
8B\	.	8B/	.	8d/	.	16r	.	.	.	.	.	.	.	.	.	.	.	.	.	.	.	.	.	.	.
.	.	.	.	.	.	16g#|/LL	.	.	.	.	.	.	.	.	.	.	.	.	.	.	.	.	.	.	.
8r	.	8r	.	8r	.	(16a/	.	.	.	.	.	.	.	.	.	.	.	.	.	.	.	.	.	.	.
.	.	.	.	.	.	16g#/JJ)	.	.	.	.	.	.	.	.	.	.	.	.	.	.	.	.	.	.	.
!	!	!	!	!	!	!LO:LB:g=original	!	!	!	!	!	!	!	!	!	!	!	!	!	!	!	!	!	!	!
8c#\	.	8c#/	.	8e/	.	16r	.	.	.	.	.	.	.	.	.	.	.	.	.	.	.	.	.	.	.
.	.	.	.	.	.	16gn/LL	.	.	.	.	.	.	.	.	.	.	.	.	.	.	.	.	.	.	.
8r	.	8r	.	8r	.	16a/	.	.	.	.	.	.	.	.	.	.	.	.	.	.	.	.	.	.	.
.	.	.	.	.	.	16g/JJ	.	.	.	.	.	.	.	.	.	.	.	.	.	.	.	.	.	.	.
8c#\	.	8A/	.	8e/	.	16r	.	.	.	.	.	.	.	.	.	.	.	.	.	.	.	.	.	.	.
.	.	.	.	.	.	16g/LL	.	.	.	.	.	.	.	.	.	.	.	.	.	.	.	.	.	.	.
8r	.	8r	.	8r	.	16a/	.	.	.	.	.	.	.	.	.	.	.	.	.	.	.	.	.	.	.
.	.	.	.	.	.	16g/JJ	.	.	.	.	.	.	.	.	.	.	.	.	.	.	.	.	.	.	.
=5	=5	=5	=5	=5	=5	=5	=5	=5	=5	=5	=5	=5	=5	=5	=5	=5	=5	=5	=5	=5	=5	=5	=5	=5	=5
!	!	!	!	!	!	!LO:TX:t=P:problem=mixed beam	!	!	!	!	!	!	!	!	!	!	!	!	!	!	!	!	!	!	!
8d\	.	8A/	.	8d/	.	16f#X/LL	.	1r	.	1r	.	1r	.	.	1r	.	.	1r	.	1r	.	1r	.	1r	.
.	.	.	.	.	.	16aa\	.	.	.	.	.	.	.	.	.	.	.	.	.	.	.	.	.	.	.
8r	.	8r	.	8r	.	16ff#\	.	.	.	.	.	.	.	.	.	.	.	.	.	.	.	.	.	.	.
.	.	.	.	.	.	16dd\JJ	.	.	.	.	.	.	.	.	.	.	.	.	.	.	.	.	.	.	.
4r	.	4r	.	4r	.	(16cc#\LL	.	.	.	.	.	.	.	.	.	.	.	.	.	.	.	.	.	.	.
.	.	.	.	.	.	16dd\	.	.	.	.	.	.	.	.	.	.	.	.	.	.	.	.	.	.	.
.	.	.	.	.	.	16ee\	.	.	.	.	.	.	.	.	.	.	.	.	.	.	.	.	.	.	.
.	.	.	.	.	.	16ff#\JJ)	.	.	.	.	.	.	.	.	.	.	.	.	.	.	.	.	.	.	.
8D\	.	8d\	.	8f#/	.	(16dd\LL	.	.	.	.	.	.	.	.	.	.	.	.	.	.	.	.	.	.	.
.	.	.	.	.	.	16cc#\	.	.	.	.	.	.	.	.	.	.	.	.	.	.	.	.	.	.	.
8r	.	8r	.	8r	.	16b|\	.	.	.	.	.	.	.	.	.	.	.	.	.	.	.	.	.	.	.
.	.	.	.	.	.	16dd|\JJ)	.	.	.	.	.	.	.	.	.	.	.	.	.	.	.	.	.	.	.
4r	.	4r	.	4r	.	(16dd\LL	.	.	.	.	.	.	.	.	.	.	.	.	.	.	.	.	.	.	.
.	.	.	.	.	.	16cc#\)	.	.	.	.	.	.	.	.	.	.	.	.	.	.	.	.	.	.	.
.	.	.	.	.	.	(16b\	.	.	.	.	.	.	.	.	.	.	.	.	.	.	.	.	.	.	.
.	.	.	.	.	.	16a\JJ)	.	.	.	.	.	.	.	.	.	.	.	.	.	.	.	.	.	.	.
!LO:LB:g=original	!	!	!	!LO:LB:g=original	!	!	!	!	!	!	!	!	!	!	!	!	!	!	!	!	!	!	!	!	!
=6	=6	=6	=6	=6	=6	=6	=6	=6	=6	=6	=6	=6	=6	=6	=6	=6	=6	=6	=6	=6	=6	=6	=6	=6	=6
*	*	*tremolo	*	*	*	*tremolo	*	*	*	*	*	*	*ij	*	*	*	*	*	*	*	*	*	*	*	*
!	!	!	!	!	!	!	!	!	!	!	!	!	!	!	!	!	!	!	!	!	!LO:DY:a:t=p&colon;	!	!LO:DY:a	!	!
!	!	!	!	!	!	!	!	!	!	!	!	!	!	!	!	!	!	!	!	!	!	!	!	!	!LO:DY:b:t=pp&colon;
8E\L	.	8B/L	.	8d/L	.	8g#X/L	.	4.E\	Spi-	4.B\	Spi-	4.d\	Spi-	.	4.g#X\	Spi-	.	2e\	.	2e\	p	2dd\	p	2gg#X\	pp
8E\	.	8B/	.	8d/	.	8g#X/	.	.	.	.	.	.	.	.	.	.	.	.	.	.	.	.	.	.	.
8E\	.	8B/	.	8d/	.	8g#X/	.	.	.	.	.	.	.	.	.	.	.	.	.	.	.	.	.	.	.
8E\J	.	8B/J	.	8d/J	.	8g#X/J	.	8E\	-ri-	8B\	-ri-	8d\	-ri-	.	8g#\	-ri-	.	.	.	.	.	.	.	.	.
*	*	*Xtremolo	*	*	*	*Xtremolo	*	*	*	*	*	*	*	*	*	*	*	*	*	*	*	*	*	*	*
!	!	!	!	!	!	!	!	!	!	!	!	!	!	!	!	!	!	!	!	!	!LO:DY:a:t=p&colon;	!	!	!	!
4AA/	.	4A/	.	4c#/	.	4a/	.	8AA/	-tu	4A\	-tu	4c#\	-tu	.	4a\	-tu.	.	4A/	.	4f#\	p	4cc#\	.	4aa\	.
.	.	.	.	.	.	.	.	8r	.	.	.	.	.	.	.	.	.	.	.	.	.	.	.	.	.
!LO:TX:i:b:t=Sequitur Ingloria	!	!	!	!	!	!	!	!	!	!	!	!	!	!	!	!	!	!	!	!	!	!	!	!	!
4r	.	4r	.	4r	.	4r	.	4r	.	4r	.	4r	.	.	4r	.	.	4r	.	4r	.	4r	.	4r	.
*	*	*	*	*	*	*	*	*	*	*	*	*	*Xij	*	*	*	*	*	*	*	*	*	*	*	*
!LO:PB:g=original	!	!LO:LB:g=original	!	!	!	!LO:LB:g=original	!	!LO:LB:g=original	!	!LO:LB:g=original	!	!LO:LB:g=original	!	!	!LO:LB:g=original	!	!	!LO:LB:g=original	!	!	!	!LO:LB:g=original	!	!LO:LB:g=original	!
=7||	=7||	=7||	=7||	=7||	=7||	=7||	=7||	=7||	=7||	=7||	=7||	=7||	=7||	=7||	=7||	=7||	=7||	=7||	=7||	=7||	=7||	=7||	=7||	=7||	=7||
*M2/2	*	*M2/2	*	*M2/2	*	*M2/2	*	*M2/2	*	*M2/2	*	*M2/2	*	*	*M2/2	*	*	*M2/2	*	*M2/2	*	*M2/2	*	*M2/2	*
*met(c|)	*	*met(c|)	*	*met(c|)	*	*met(c|)	*	*met(c|)	*	*met(c|)	*	*met(c|)	*	*	*met(c|)	*	*	*met(c|)	*	*met(c|)	*	*met(c|)	*	*met(c|)	*
!	!	!	!	!	!	!	!	!	!	!	!	!	!	!	!	!	!	!	!	!	!	!	!	!LO:TX:a:t=23	!
!	!	!	!	!LO:TX:a:t=10	!	!LO:TX:i:a:t=Allabre. Allegro	!	!	!	!	!	!LO:TX:i:a:t=Allabr allo&colon;	!	!	!LO:TX:i:a:t=allabr. allo&colon;	!	!	!LO:TX:i:a:t=allabreve allo	!	!LO:TX:b:t=33	!	!LO:TX:a:t=23	!	!LO:TX:i:a:t=allab&colon; allo	!
!LO:TX:i:a:t=Allabreve	!	!LO:TX:i:a:t=allabreve allo.	!	!LO:TX:i:a:t=allabreve allo,	!	!LO:TX:b:t=15	!	!	!	!LO:TX:i:a:t=Allab&colon; allo.	!	!LO:TX:a:t=10	!	!	!LO:TX:a:t=15.	!	!	!LO:TX:a:t=23.	!	!LO:TX:i:a:t=allabr	!	!LO:TX:i:a:t=allab&colon; allo	!	!LO:TX:i:a:t=Allegro	!
!	!	!LO:TX:i:a:t=Ingloria	!	!LO:TX:i:b:t=In gloria	!	!LO:TX:i:a:t=InGloria	!	!	!	!	!	!	!	!	!	!	!	!LO:TX:i:a:t=Ingloria	!	!LO:TX:i:a:t=In gloria\nin D	!	!LO:TX:i:a:t=In Gloria	!	!LO:TX:i:a:t=Ingloria.	!
4r	.	1r	.	1r	.	1r	.	4r	.	1r	.	1r	.	.	1r	.	.	1r	.	1r	.	1r	.	1r	.
4D|\	.	.	.	.	.	.	.	(4D\	In	.	.	.	.	.	.	.	.	.	.	.	.	.	.	.	.
4C#|\	.	.	.	.	.	.	.	4C#\)	.	.	.	.	.	.	.	.	.	.	.	.	.	.	.	.	.
!LO:TX:i:a:t=allo.	!	!	!	!	!	!	!	!	!	!	!	!	!	!	!	!	!	!	!	!	!	!	!	!	!
4D|\	.	.	.	.	.	.	.	4D\	.	.	.	.	.	.	.	.	.	.	.	.	.	.	.	.	.
=8	=8	=8	=8	=8	=8	=8	=8	=8	=8	=8	=8	=8	=8	=8	=8	=8	=8	=8	=8	=8	=8	=8	=8	=8	=8
4E\	.	1r	.	1r	.	1r	.	4E\	glo-	1r	.	1r	.	.	1r	.	.	1r	.	1r	.	1r	.	1r	.
4F#\	.	.	.	.	.	.	.	4F#\	-ri-	.	.	.	.	.	.	.	.	.	.	.	.	.	.	.	.
2G\	.	.	.	.	.	.	.	2G\	-a	.	.	.	.	.	.	.	.	.	.	.	.	.	.	.	.
=9	=9	=9	=9	=9	=9	=9	=9	=9	=9	=9	=9	=9	=9	=9	=9	=9	=9	=9	=9	=9	=9	=9	=9	=9	=9
4F#\	.	1r	.	1r	.	1r	.	(4F#\	De-	1r	.	1r	.	.	1r	.	.	1r	.	1r	.	1r	.	1r	.
4E\	.	.	.	.	.	.	.	4E\)	.	.	.	.	.	.	.	.	.	.	.	.	.	.	.	.	.
4D\	.	.	.	.	.	.	.	4D\	-i	.	.	.	.	.	.	.	.	.	.	.	.	.	.	.	.
4B\	.	.	.	.	.	.	.	4B\	Pa-	.	.	.	.	.	.	.	.	.	.	.	.	.	.	.	.
=10	=10	=10	=10	=10	=10	=10	=10	=10	=10	=10	=10	=10	=10	=10	=10	=10	=10	=10	=10	=10	=10	=10	=10	=10	=10
4G\	.	1r	.	1r	.	1r	.	(4G\	.	1r	.	1r	.	.	1r	.	.	1r	.	1r	.	1r	.	1r	.
4F#\	.	.	.	.	.	.	.	4F#\)	.	.	.	.	.	.	.	.	.	.	.	.	.	.	.	.	.
4E\	.	.	.	.	.	.	.	4E\	-tris	.	.	.	.	.	.	.	.	.	.	.	.	.	.	.	.
4A\	.	.	.	.	.	.	.	4A\	a-	.	.	.	.	.	.	.	.	.	.	.	.	.	.	.	.
=11	=11	=11	=11	=11	=11	=11	=11	=11	=11	=11	=11	=11	=11	=11	=11	=11	=11	=11	=11	=11	=11	=11	=11	=11	=11
4F#\	.	1r	.	1r	.	1r	.	4F#\	.	1r	.	1r	.	.	1r	.	.	1r	.	1r	.	1r	.	1r	.
4E\	.	.	.	.	.	.	.	4E\	.	.	.	.	.	.	.	.	.	.	.	.	.	.	.	.	.
4D\	.	.	.	.	.	.	.	4D\	.	.	.	.	.	.	.	.	.	.	.	.	.	.	.	.	.
8E\L	.	.	.	.	.	.	.	8E\L	.	.	.	.	.	.	.	.	.	.	.	.	.	.	.	.	.
8D\J	.	.	.	.	.	.	.	8D\J	.	.	.	.	.	.	.	.	.	.	.	.	.	.	.	.	.
=12	=12	=12	=12	=12	=12	=12	=12	=12	=12	=12	=12	=12	=12	=12	=12	=12	=12	=12	=12	=12	=12	=12	=12	=12	=12
*^	*	*	*	*	*	*	*	*	*	*	*	*	*	*	*	*	*	*	*	*	*	*	*	*	*
4r	2.C#\	.	4r	.	1r	.	1r	.	2C#/	-men	4r	.	1r	.	.	1r	.	.	1r	.	1r	.	1r	.	1r	.
4A/	.	.	4A/	.	.	.	.	.	.	.	(4A/	In	.	.	.	.	.	.	.	.	.	.	.	.	.	.
4G#X/	.	.	4G#X/	.	.	.	.	.	4r	.	4G#X/)	.	.	.	.	.	.	.	.	.	.	.	.	.	.	.
4A/	4r	.	4A/	.	.	.	.	.	4A\	a-	4A/	.	.	.	.	.	.	.	.	.	.	.	.	.	.	.
!	!	!	!	!	!	!	!	!	!LO:LB:g=original	!	!	!	!	!	!	!	!	!	!	!	!	!	!	!	!	!
=13	=13	=13	=13	=13	=13	=13	=13	=13	=13	=13	=13	=13	=13	=13	=13	=13	=13	=13	=13	=13	=13	=13	=13	=13	=13	=13
4B/	4G#X\	.	4B\	.	1r	.	1r	.	4G#X\	.	4B\	glo-	1r	.	.	1r	.	.	1r	.	1r	.	1r	.	1r	.
4c#/	4A\	.	4c#\	.	.	.	.	.	4A\	.	4c#\	-ri-	.	.	.	.	.	.	.	.	.	.	.	.	.	.
2d/	4F#\	.	2d\	.	.	.	.	.	4F#X\	.	2d\	-a	.	.	.	.	.	.	.	.	.	.	.	.	.	.
.	4G#\	.	.	.	.	.	.	.	4G#\	.	.	.	.	.	.	.	.	.	.	.	.	.	.	.	.	.
=14	=14	=14	=14	=14	=14	=14	=14	=14	=14	=14	=14	=14	=14	=14	=14	=14	=14	=14	=14	=14	=14	=14	=14	=14	=14	=14
4c#/	2A\	.	4c#\	.	1r	.	1r	.	2A\	-men	(4c#\	De-	1r	.	.	1r	.	.	1r	.	1r	.	1r	.	1r	.
4B/	.	.	4B\	.	.	.	.	.	.	.	4B\)	.	.	.	.	.	.	.	.	.	.	.	.	.	.	.
4A/	4r	.	4A\	.	.	.	.	.	4r	.	4A\	-i	.	.	.	.	.	.	.	.	.	.	.	.	.	.
4f#/	4A#X\	.	4f#\	.	.	.	.	.	4A#X\	a-	4f#\	Pa-	.	.	.	.	.	.	.	.	.	.	.	.	.	.
!LO:LB:g=original	!LO:LB:g=original	!	!	!	!	!	!	!	!	!	!	!	!	!	!	!	!	!	!	!	!	!	!	!	!	!
=15	=15	=15	=15	=15	=15	=15	=15	=15	=15	=15	=15	=15	=15	=15	=15	=15	=15	=15	=15	=15	=15	=15	=15	=15	=15	=15
!	!LO:TX:t=P:problem=niezidentyfikowany znak	!	!	!	!	!	!	!	!	!	!	!	!	!	!	!	!	!	!	!	!	!	!	!	!	!
4d/	2BB/	.	4d\	.	1r	.	1r	.	2B\	-men	(4d\	.	1r	.	.	1r	.	.	1r	.	1r	.	1r	.	1r	.
4c#/	.	.	4c#\	.	.	.	.	.	.	.	4c#\	.	.	.	.	.	.	.	.	.	.	.	.	.	.	.
4B/	4r	.	4B\	.	.	.	.	.	4r	.	4B\)	.	.	.	.	.	.	.	.	.	.	.	.	.	.	.
4e/	4G#X\	.	4e\	.	.	.	.	.	4G#X\	a-	4e\	-tris	.	.	.	.	.	.	.	.	.	.	.	.	.	.
!	!	!	!LO:LB:g=original	!	!	!	!	!	!	!	!	!	!	!	!	!	!	!	!	!	!	!	!	!	!	!
=16	=16	=16	=16	=16	=16	=16	=16	=16	=16	=16	=16	=16	=16	=16	=16	=16	=16	=16	=16	=16	=16	=16	=16	=16	=16	=16
4c#/	2A\	.	4c#\	.	1r	.	1r	.	2A\	.	(4c#\	a-	1r	.	.	1r	.	.	1r	.	1r	.	1r	.	1r	.
4B/	.	.	4B\	.	.	.	.	.	.	.	4B\	.	.	.	.	.	.	.	.	.	.	.	.	.	.	.
4An/	2G\	.	4A\	.	.	.	.	.	2Gn\	.	4A\)	.	.	.	.	.	.	.	.	.	.	.	.	.	.	.
!	!	!	!	!	!	!	!	!	!	!	!LO:LB:g=original	!	!	!	!	!	!	!	!	!	!	!	!	!	!	!
8B/L	.	.	8B\L	.	.	.	.	.	.	.	8B\L	.	.	.	.	.	.	.	.	.	.	.	.	.	.	.
8c#/J	.	.	8c#\J	.	.	.	.	.	.	.	8c#\J	.	.	.	.	.	.	.	.	.	.	.	.	.	.	.
=17	=17	=17	=17	=17	=17	=17	=17	=17	=17	=17	=17	=17	=17	=17	=17	=17	=17	=17	=17	=17	=17	=17	=17	=17	=17	=17
2d/	2F#\	.	2d\	.	4r	.	1r	.	2F#\	-men	2d\	-men	4r	.	.	1r	.	.	1r	.	1r	.	1r	.	1r	.
.	.	.	.	.	4d/	.	.	.	.	.	.	.	4d\	In	.	.	.	.	.	.	.	.	.	.	.	.
2ryy	8r	.	2A/	.	4c#/	.	.	.	4r	.	2A\	a-	4c#\	.	.	.	.	.	.	.	.	.	.	.	.	.
.	8r	.	.	.	.	.	.	.	.	.	.	.	.	.	.	.	.	.	.	.	.	.	.	.	.	.
.	4F#\	.	.	.	4d/	.	.	.	4F#\	a-	.	.	4d\	.	.	.	.	.	.	.	.	.	.	.	.	.
*v	*v	*	*	*	*	*	*	*	*	*	*	*	*	*	*	*	*	*	*	*	*	*	*	*	*	*
=18	=18	=18	=18	=18	=18	=18	=18	=18	=18	=18	=18	=18	=18	=18	=18	=18	=18	=18	=18	=18	=18	=18	=18	=18	=18
4G\	.	4c#\	.	4e/	.	1r	.	4G\	.	4c#\	.	4e\	glo-	.	1r	.	.	1r	.	1r	.	1r	.	1r	.
4F#\	.	4d\	.	4f#/	.	.	.	4F#\	.	2d\	.	4f#\	-ri-	.	.	.	.	.	.	.	.	.	.	.	.
4BB/	.	4d\	.	2g/	.	.	.	4BB/	.	.	.	2g\	-a	.	.	.	.	.	.	.	.	.	.	.	.
4C#/	.	4e\	.	.	.	.	.	4C#/	.	4e\	.	.	.	.	.	.	.	.	.	.	.	.	.	.	.
=19	=19	=19	=19	=19	=19	=19	=19	=19	=19	=19	=19	=19	=19	=19	=19	=19	=19	=19	=19	=19	=19	=19	=19	=19	=19
2D\	.	4d\	.	4f#/	.	1r	.	2D\	-men	4d\	.	(4f#\	De-	.	1r	.	.	1r	.	1r	.	1r	.	1r	.
.	.	4e\	.	4e/	.	.	.	.	.	4e\	.	4e\)	.	.	.	.	.	.	.	.	.	.	.	.	.
4r	.	4f#\	.	4d/	.	.	.	4r	.	4f#\	.	4d\	-i	.	.	.	.	.	.	.	.	.	.	.	.
4D#X\	.	4f#\	.	4b\	.	.	.	4D#X\	a-	4g\	-men	4b\	Pa-	.	.	.	.	.	.	.	.	.	.	.	.
=20	=20	=20	=20	=20	=20	=20	=20	=20	=20	=20	=20	=20	=20	=20	=20	=20	=20	=20	=20	=20	=20	=20	=20	=20	=20
4E\	.	4g\	.	4g/	.	1r	.	4E\	.	(4g\	a-	(4g\	.	.	1r	.	.	1r	.	1r	.	1r	.	1r	.
4F#\	.	4d#X\	.	4f#/	.	.	.	4F#\	.	4d#X\)	.	4f#\)	.	.	.	.	.	.	.	.	.	.	.	.	.
4G\	.	4e\	.	4e/	.	.	.	4G\	.	4e\	-men	4e\	-tris	.	.	.	.	.	.	.	.	.	.	.	.
4C#/	.	4e\	.	4a/	.	.	.	4C#/	.	4e\	a-	4a\	a-	.	.	.	.	.	.	.	.	.	.	.	.
!	!	!	!	!	!	!	!	!LO:LB:g=original	!	!	!	!LO:LB:g=original	!	!	!	!	!	!	!	!	!	!	!	!	!
=21	=21	=21	=21	=21	=21	=21	=21	=21	=21	=21	=21	=21	=21	=21	=21	=21	=21	=21	=21	=21	=21	=21	=21	=21	=21
4D\	.	4f#\	.	4f#/	.	1r	.	4D\	.	4f#\	.	4f#\	.	.	1r	.	.	1r	.	1r	.	1r	.	1r	.
4E\	.	4c#\	.	4e/	.	.	.	4E\	.	4c#\	.	4e\	.	.	.	.	.	.	.	.	.	.	.	.	.
4F#\	.	4d\	.	4d/	.	.	.	4F#\	.	4d\	.	4d\	.	.	.	.	.	.	.	.	.	.	.	.	.
4G#X\	.	4B\	.	8e/L	.	.	.	4G#X\	.	4B\	.	8e\L	.	.	.	.	.	.	.	.	.	.	.	.	.
.	.	.	.	8d/J	.	.	.	.	.	.	.	8d\J	.	.	.	.	.	.	.	.	.	.	.	.	.
=22	=22	=22	=22	=22	=22	=22	=22	=22	=22	=22	=22	=22	=22	=22	=22	=22	=22	=22	=22	=22	=22	=22	=22	=22	=22
2A\	.	2A/	.	2c#/	.	4r	.	2A\	-men	2A\	-men	2c#\	-men	.	4r	.	.	1r	.	1r	.	1r	.	1r	.
.	.	.	.	.	.	4a/	.	.	.	.	.	.	.	.	4a\	I[n]	.	.	.	.	.	.	.	.	.
*clefC4	*	*	*	*	*	*	*	*	*	*	*	*	*	*	*	*	*	*	*	*	*	*	*	*	*
4r	.	4r	.	4r	.	4g#X/	.	2r	.	4r	.	4r	.	.	4g#X\	.	.	.	.	.	.	.	.	.	.
!	!	!LO:PB:g=original	!	!	!	!	!	!	!	!	!	!	!	!	!	!	!	!	!	!	!	!	!	!	!
4c#\	.	4c#/	.	4e/	.	4a/	.	.	.	4c#\	a-	4e\	a-	.	4a\	.	.	.	.	.	.	.	.	.	.
!LO:LB:g=original	!	!	!	!LO:LB:g=original	!	!	!	!	!	!LO:LB:g=original	!	!	!	!	!	!	!	!	!	!	!	!	!	!	!
=23	=23	=23	=23	=23	=23	=23	=23	=23	=23	=23	=23	=23	=23	=23	=23	=23	=23	=23	=23	=23	=23	=23	=23	=23	=23
!	!	!	!	!	!	!	!	!LO:TX:a:t=7	!	!	!	!	!	!	!	!	!	!	!	!	!	!	!	!	!
4d\	.	4d\	.	4g#X/	.	4b\	.	1r	.	4d\	.	4g#X\	.	.	4b\	glo-	.	1r	.	1r	.	1r	.	1r	.
4c#\	.	4c#\	.	2a/	.	4cc#\	.	.	.	4c#\	.	2a\	.	.	4cc#\	-ri-	.	.	.	.	.	.	.	.	.
4F#/	.	4f#\	.	.	.	2dd\	.	.	.	4F#/	.	.	.	.	2dd\	-a	.	.	.	.	.	.	.	.	.
4G#X/	.	4g#X\	.	4b/	.	.	.	.	.	4G#X/	.	4b\	.	.	.	.	.	.	.	.	.	.	.	.	.
=24	=24	=24	=24	=24	=24	=24	=24	=24	=24	=24	=24	=24	=24	=24	=24	=24	=24	=24	=24	=24	=24	=24	=24	=24	=24
2A\	.	2a\	.	4a/	.	4cc#\	.	1r	.	2A\	-men	4a\	.	.	(4cc#\	De-	.	1r	.	1r	.	1r	.	1r	.
.	.	.	.	4b/	.	4b\	.	.	.	.	.	4b\	.	.	4b\)	.	.	.	.	.	.	.	.	.	.
4r	.	4r	.	4cc#/	.	4a\	.	.	.	4r	.	4cc#\	-men	.	4a\	-i	.	.	.	.	.	.	.	.	.
4A#X\	.	4A#X/	.	4f#/	.	4ff#\	.	.	.	4A#X/	a-	4f#\	a-	.	4ff#\	Pa-	.	.	.	.	.	.	.	.	.
=25	=25	=25	=25	=25	=25	=25	=25	=25	=25	=25	=25	=25	=25	=25	=25	=25	=25	=25	=25	=25	=25	=25	=25	=25	=25
4B\	.	4B/	.	2f#/	.	4dd\	.	1r	.	4B\	.	2f#\	-men	.	4dd\	.	.	1r	.	1r	.	1r	.	1r	.
4c#\	.	4c#/	.	.	.	4cc#\	.	.	.	4c#\	.	.	.	.	4cc#\	.	.	.	.	.	.	.	.	.	.
4d\	.	4d/	.	4r	.	4b\	.	.	.	4d\	.	4r	.	.	4b\	.	.	.	.	.	.	.	.	.	.
*	*	*	*	*	*	*	*	*	*	*	*	*	*ij	*	*	*	*	*	*	*	*	*	*	*	*
4G#X/	.	4G#X/	.	4e/	.	4ee\	.	.	.	4G#X/	.	4e\	a-	.	4ee\	-tris	.	.	.	.	.	.	.	.	.
=26	=26	=26	=26	=26	=26	=26	=26	=26	=26	=26	=26	=26	=26	=26	=26	=26	=26	=26	=26	=26	=26	=26	=26	=26	=26
4A\	.	4A/	.	2e/	.	4cc#\	.	1r	.	4A\	.	2e\	-men	.	4cc#\	a-	.	1r	.	1r	.	1r	.	1r	.
*	*	*	*	*	*	*	*	*	*	*	*	*	*Xij	*	*	*	*	*	*	*	*	*	*	*	*
4B\	.	4B/	.	.	.	4b\	.	.	.	4B\	.	.	.	.	4b\	.	.	.	.	.	.	.	.	.	.
4c#\	.	4c#/	.	4r	.	4a\	.	.	.	4c#\	.	4r	.	.	4a\	.	.	.	.	.	.	.	.	.	.
4A\	.	4A/	.	4e/	.	8b\L	.	.	.	4A\	.	4e\	a-	.	8b\L	.	.	.	.	.	.	.	.	.	.
.	.	.	.	.	.	8cc#\J	.	.	.	.	.	.	.	.	8cc#\J	.	.	.	.	.	.	.	.	.	.
!	!	!	!	!	!	!LO:LB:g=original	!	!	!	!	!	!LO:LB:g=original	!	!	!	!	!	!	!	!	!	!	!	!	!
=27	=27	=27	=27	=27	=27	=27	=27	=27	=27	=27	=27	=27	=27	=27	=27	=27	=27	=27	=27	=27	=27	=27	=27	=27	=27
4F#/	.	4f#\	.	4a/	.	1dd	.	1r	.	4F#/	.	4a\	.	.	1dd	.	.	1r	.	1r	.	1r	.	1r	.
4E/	.	4e\	.	4g/	.	.	.	.	.	4E/	.	4g\	.	.	.	.	.	.	.	.	.	.	.	.	.
4D/	.	4d\	.	4f#/	.	.	.	.	.	4D/	.	4f#\	.	.	.	.	.	.	.	.	.	.	.	.	.
8E/L	.	8e\L	.	8g/L	.	.	.	.	.	8E/L	.	8g\L	.	.	.	.	.	.	.	.	.	.	.	.	.
8F#/J	.	8f#\J	.	8a/J	.	.	.	.	.	8F#/J	.	8a\J	.	.	.	.	.	.	.	.	.	.	.	.	.
!	!	!LO:LB:g=original	!	!	!	!	!	!	!	!	!	!	!	!	!LO:LB:g=original	!	!	!	!	!	!	!	!	!	!
=28	=28	=28	=28	=28	=28	=28	=28	=28	=28	=28	=28	=28	=28	=28	=28	=28	=28	=28	=28	=28	=28	=28	=28	=28	=28
4G#X/	.	2g#X\	.	2b/	.	2dd\	.	1r	.	2G#X/	.	2b\	.	.	2dd\	.	.	1r	.	1r	.	1r	.	1r	.
4G#/	.	.	.	.	.	.	.	.	.	.	.	.	.	.	.	.	.	.	.	.	.	.	.	.	.
2A/	.	2a\	.	2a/	.	2cc#\	.	.	.	2A/	.	2a\	.	.	2cc#\	.	.	.	.	.	.	.	.	.	.
!	!	!	!	!	!	!	!	!	!	!LO:LB:g=original	!	!	!	!	!	!	!	!	!	!	!	!	!	!	!
=29	=29	=29	=29	=29	=29	=29	=29	=29	=29	=29	=29	=29	=29	=29	=29	=29	=29	=29	=29	=29	=29	=29	=29	=29	=29
2A/	.	2a\	.	2d/	.	1b	.	1r	.	2A/	.	2d\	.	.	1b	.	.	1r	.	1r	.	1r	.	1r	.
2Gn/	.	2gn\	.	2e/	.	.	.	.	.	2Gn/	.	2e\	.	.	.	.	.	.	.	.	.	.	.	.	.
=30	=30	=30	=30	=30	=30	=30	=30	=30	=30	=30	=30	=30	=30	=30	=30	=30	=30	=30	=30	=30	=30	=30	=30	=30	=30
4F#/	.	4f#\	.	4f#/	.	2a/	.	4r	.	4F#/	-men	4f#\	-men	.	2a\	-men	.	1r	.	1r	.	2r	.	4ryy	.
*clefF4	*	*	*	*	*	*	*	*	*	*	*	*	*	*	*	*	*	*	*	*	*	*	*	*	*
4D\	.	4d\	.	4f#/	.	.	.	(4D/	In	(4d\	a-	4f#\	a-	.	.	.	.	.	.	.	.	.	.	4r	.
4C#\	.	4e\	.	4e/	.	4r	.	4C#/	.	4e\)	.	4e\	.	.	4r	.	.	.	.	.	.	4r	.	4r	.
4D\	.	4d\	.	4f#/	.	4ff#\	.	4D/)	.	4d\	.	4f#\	.	.	4ff#\	a-	.	.	.	.	.	4a/	.	4ff#\	.
=31	=31	=31	=31	=31	=31	=31	=31	=31	=31	=31	=31	=31	=31	=31	=31	=31	=31	=31	=31	=31	=31	=31	=31	=31	=31
4E\	.	4c#\	.	4g/	.	4ee\	.	4E\	glo-	4c#\	.	4g\	.	.	4ee\	.	.	1r	.	1r	.	2a/	.	4ee\	.
4F#\	.	4A/	.	4a/	.	2dd\	.	4F#\	-ri-	4d\	.	4a\	.	.	2dd\	.	.	.	.	.	.	.	.	2dd\	.
2G\	.	4G/	.	4b/	.	.	.	2G\	-a	4B\	.	4b\	.	.	.	.	.	.	.	.	.	4b/	.	.	.
.	.	4e\	.	4a/	.	4cc#\	.	.	.	4c#\	.	4a\	.	.	4cc#\	.	.	.	.	.	.	4a/	.	4cc#\	.
!LO:LB:g=original	!	!	!	!	!	!	!	!	!	!	!	!	!	!	!	!	!	!	!	!	!	!	!	!	!
=32	=32	=32	=32	=32	=32	=32	=32	=32	=32	=32	=32	=32	=32	=32	=32	=32	=32	=32	=32	=32	=32	=32	=32	=32	=32
4F#\	.	4f#\	.	4a/	.	4dd\	.	(4F#\	De-	4d\	.	4a\	.	.	(4dd\	.	.	1r	.	1r	.	2a/	.	4dd\	.
4E\	.	4e\	.	4g/	.	4ee\	.	4E\)	.	4c#\	.	4g\	.	.	4ee\)	.	.	.	.	.	.	.	.	4ee\	.
4D\	.	4d\	.	4f#/	.	4ff#\	.	4D\	-i	4d\	.	2f#\	.	.	4ff#\	-men	.	.	.	.	.	4r	.	4ff#\	.
4B\	.	4c#\	.	4f#/	.	4dd#X\	.	(4B\	Pa-	4B\	.	.	.	.	4dd#X\	a-	.	.	.	.	.	4b/	.	4dd#X\	.
!	!	!	!	!	!	!	!	!	!	!	!	!	!	!	!	!	!	!	!	!	!	!LO:LB:g=original	!	!	!
=33	=33	=33	=33	=33	=33	=33	=33	=33	=33	=33	=33	=33	=33	=33	=33	=33	=33	=33	=33	=33	=33	=33	=33	=33	=33
4G\	.	2.B/	.	4g/	.	4ee\	.	4G\	.	2B\	-men	4g\	.	.	4ee\	.	.	1r	.	1r	.	2.b\	.	4ee\	.
4F#\	.	.	.	4a/	.	4ff#\	.	4F#\)	.	.	.	4a\	.	.	4ff#\	.	.	.	.	.	.	.	.	4ff#\	.
4E\	.	.	.	4b/	.	4gg\	.	4E\	-tris	4r	.	4b\	.	.	4gg\	.	.	.	.	.	.	.	.	4gg\	.
4A\	.	4A/	.	4e/	.	4cc#\	.	4A\	a-	4A\	a-	4e\	.	.	4cc#\	.	.	.	.	.	.	4a\	.	4cc#\	.
!	!	!	!	!LO:LB:g=original	!	!	!	!	!	!	!	!LO:LB:g=original	!	!	!	!	!	!	!	!	!	!	!	!	!
=34	=34	=34	=34	=34	=34	=34	=34	=34	=34	=34	=34	=34	=34	=34	=34	=34	=34	=34	=34	=34	=34	=34	=34	=34	=34
4F#\	.	2.a\	.	4f#/	.	4dd\	.	4F#\	.	2A\	-men	4f#\	.	.	4dd\	.	.	1r	.	1r	.	2.a/	.	4dd\	.
4E\	.	.	.	4g/	.	4ee\	.	4E\	.	.	.	4g\	.	.	4ee\	.	.	.	.	.	.	.	.	4ee\	.
4D\	.	.	.	4a/	.	4ff#\	.	4D\	.	4r	.	4a\	.	.	4ff#\	.	.	.	.	.	.	.	.	4ff#\	.
4G\	.	4g\	.	4d/	.	4b\	.	4G\	.	4G/	a-	4g\	.	.	4b\	.	.	.	.	.	.	4g/	.	4b\	.
!	!	!LO:LB:g=original	!	!	!	!	!	!	!	!	!	!	!	!	!	!	!	!	!	!	!	!	!	!	!
=35	=35	=35	=35	=35	=35	=35	=35	=35	=35	=35	=35	=35	=35	=35	=35	=35	=35	=35	=35	=35	=35	=35	=35	=35	=35
4E\	.	2.g\	.	4e/	.	4cc#\	.	4E\	.	4c#\	.	2.g\	.	.	4cc#\	.	.	1r	.	1r	.	2.g/	.	4cc#\	.
4D\	.	.	.	4f#/	.	4dd\	.	4D\	.	4d\	.	.	.	.	4dd\	.	.	.	.	.	.	.	.	4dd\	.
4C#\	.	.	.	4g/	.	4ee\	.	4C#/	.	4e\	.	.	.	.	4ee\	.	.	.	.	.	.	.	.	4ee\	.
4F#\	.	4f#\	.	4c#/	.	4a#X/	.	4F#\	.	4c#\	.	4f#\	.	.	4a#X\	.	.	.	.	.	.	4f#/	.	4a#X/	.
!	!	!	!	!	!	!	!	!LO:LB:g=original	!	!LO:LB:g=original	!	!	!	!	!	!	!	!	!	!	!	!	!	!LO:LB:g=original	!
=36	=36	=36	=36	=36	=36	=36	=36	=36	=36	=36	=36	=36	=36	=36	=36	=36	=36	=36	=36	=36	=36	=36	=36	=36	=36
2BB/	.	2f#\	.	4d/	.	4b/	.	4BB/	-men	2d\	-men	2f#\	-men	.	4b\	-men	.	1r	.	1r	.	4f#/	.	4b\	.
.	.	.	.	4d/	.	4b/	.	4r	.	.	.	.	.	.	((4b\	In	.	.	.	.	.	4r	.	4r	.
*clefC4	*	*	*	*	*	*	*	*	*	*	*	*	*	*	*	*	*	*	*	*	*	*	*	*	*
4r	.	4r	.	4e/	.	4a#X/	.	2r	.	4r	.	2f#\	a-	.	4a#X\)	.	.	.	.	.	.	2r	.	2r	.
4B\	.	4B/	.	4d/	.	4b/	.	.	.	4B\	a-	.	.	.	4b\)	.	.	.	.	.	.	.	.	.	.
!	!	!	!	!	!	!LO:PB:g=original	!	!	!	!	!	!	!	!	!	!	!	!	!	!	!	!	!	!	!
=37	=37	=37	=37	=37	=37	=37	=37	=37	=37	=37	=37	=37	=37	=37	=37	=37	=37	=37	=37	=37	=37	=37	=37	=37	=37
!	!	!	!	!	!	!	!	!	!	!	!	!	!	!	!	!	!	!	!	!	!	!LO:TX:a:t=3	!	!LO:TX:a:t=3.	!
4A#X\	.	4A#X/	.	2f#/	.	4cc#\	.	1r	.	4A#X\	.	2f#\	.	.	4cc#\	glo-	.	1r	.	1r	.	1r	.	1r	.
4B\	.	4B/	.	.	.	4dd\	.	.	.	4B\	.	.	.	.	4dd\	-ri-	.	.	.	.	.	.	.	.	.
4G#X\	.	4G#X/	.	4b\	.	2ee\	.	.	.	4G#X/	.	4e\	.	.	2ee\	-a	.	.	.	.	.	.	.	.	.
4A#\	.	4A#/	.	4cc#\	.	.	.	.	.	4A#/	.	4f#\	.	.	.	.	.	.	.	.	.	.	.	.	.
!	!	!	!	!	!	!	!	!	!	!	!	!	!	!	!LO:LB:g=original	!	!	!	!	!	!	!	!	!	!
=38	=38	=38	=38	=38	=38	=38	=38	=38	=38	=38	=38	=38	=38	=38	=38	=38	=38	=38	=38	=38	=38	=38	=38	=38	=38
2B\	.	4B\	.	4f#/	.	4dd\	.	1r	.	4B\	.	4f#\	.	.	(4dd\	De-	.	1r	.	1r	.	1r	.	1r	.
.	.	4c#\	.	4e/	.	4cc#\	.	.	.	4c#\	.	4e\	.	.	4cc#\)	.	.	.	.	.	.	.	.	.	.
4r	.	4d\	.	4f#/	.	4b\	.	.	.	4d\	.	4f#\	.	.	4b\	-i	.	.	.	.	.	.	.	.	.
4B\	.	4B\	.	4d/	.	4gg\	.	.	.	4B\	.	4d\	.	.	4gg\	Pa-	.	.	.	.	.	.	.	.	.
=39	=39	=39	=39	=39	=39	=39	=39	=39	=39	=39	=39	=39	=39	=39	=39	=39	=39	=39	=39	=39	=39	=39	=39	=39	=39
2c#\	.	2c#\	.	4e/	.	4ee\	.	1r	.	2c#\	-men	4e\	.	.	(4ee\	.	.	1r	.	1r	.	1r	.	1r	.
.	.	.	.	4f#/	.	4dd\	.	.	.	.	.	4f#\	.	.	4dd\)	.	.	.	.	.	.	.	.	.	.
4r	.	4r	.	4g/	.	4cc#\	.	.	.	4r	.	4g\	.	.	4cc#\	-tris	.	.	.	.	.	.	.	.	.
*	*	*	*	*	*	*	*	*	*	*	*ij	*	*	*	*	*	*	*	*	*	*	*	*	*	*
!	!	!LO:SIC:v:s=4A#X/	!	!	!	!	!	!	!	!	!	!	!	!LO:DY:a:t=for	!	!	!	!	!	!	!	!	!	!	!
4A#X\	.	4A/	.	4c#/	.	4ff#\	.	.	.	4A#X\	a-	4f#\ 4d\	.	f	4ff#\	a-	.	.	.	.	.	.	.	.	.
=40	=40	=40	=40	=40	=40	=40	=40	=40	=40	=40	=40	=40	=40	=40	=40	=40	=40	=40	=40	=40	=40	=40	=40	=40	=40
!	!	!	!	!	!	!	!	!	!	!	!	!	!	!	!	!	!	!	!	!LO:TX:i:a:t=allo	!	!	!	!	!
4B\	.	2B/	.	4d/	.	4dd\	.	2r	.	2B\	-men	4d\	.	.	(4dd\	.	.	2r	.	2r	.	2r	.	2r	.
4c#\	.	.	.	4e/	.	4cc#\	.	.	.	.	.	4e\	.	.	4cc#\)	.	.	.	.	.	.	.	.	.	.
4d\	.	4r	.	4f#/	.	4b\	.	4r	.	4r	.	4f#\	.	.	4b\	-men	.	4r	.	4r	.	4r	.	4r	.
*clefF4	*	*	*	*	*	*	*	*	*	*	*Xij	*	*	*	*	*	*	*	*	*	*	*	*	*	*
4G#X\	.	4B/	.	4e/	.	4ee\	.	4G#X\	a-	4B\	a-	4e\	.	.	4ee\	a-	.	4e\	.	4e\	.	4ee\	.	4ee\	.
!LO:LB:g=original	!	!	!	!	!	!	!	!	!	!	!	!LO:LB:g=original	!	!	!	!	!	!	!	!	!	!	!	!	!
=41	=41	=41	=41	=41	=41	=41	=41	=41	=41	=41	=41	=41	=41	=41	=41	=41	=41	=41	=41	=41	=41	=41	=41	=41	=41
4A\	.	4A/	.	4e/	.	4cc#\	.	4A\	.	4c#\	.	2e\	-men	.	(4cc#\	.	.	2A/	.	2e\	.	1ee	.	1ee	.
4B\	.	4G#X/	.	2e/	.	4b\	.	4B\	.	4d\	.	.	.	.	4b\)	.	.	.	.	.	.	.	.	.	.
4c#\	.	4A/	.	.	.	4a\	.	4c#\	.	4e\	.	2e\	a-	.	4a\	-men	.	4r	.	4r	.	.	.	.	.
!LO:SIC:v:s=4G#X\	!	!	!	!	!	!	!	!	!	!	!	!	!	!	!	!	!	!	!	!	!	!	!	!	!
4G\	.	4b\	.	4e/	.	4ee\	.	4G#X\	.	4B\	.	.	.	.	4ee\	a-	.	4e\	.	4e\	.	.	.	.	.
!	!	!LO:LB:g=original	!	!	!	!	!	!	!	!	!	!	!	!	!	!	!	!	!	!	!	!	!	!	!
=42	=42	=42	=42	=42	=42	=42	=42	=42	=42	=42	=42	=42	=42	=42	=42	=42	=42	=42	=42	=42	=42	=42	=42	=42	=42
4A\	.	4a\	.	4e/	.	4cc#\	.	4A\	.	4c#\	.	2e\	.	.	4cc#\	.	.	2A/	.	2e\	.	1ee	.	1ee	.
4B\	.	4g#X\	.	2e/	.	4b\	.	4B\	.	4d\	.	.	.	.	4b\	.	.	.	.	.	.	.	.	.	.
4c#\	.	4a\	.	.	.	4a\	.	4c#\	-men	4e\	.	2e\	.	.	4a\	-men	.	2r	.	2r	.	.	.	.	.
4c#\	.	4a\	.	4e/	.	[4ee\	.	4c#\	a-	4A\	.	.	.	.	4ee\	a-	.	.	.	.	.	.	.	.	.
!	!	!	!	!	!	!	!	!	!	!LO:LB:g=original	!	!	!	!	!	!	!	!	!	!LO:LB:g=original	!	!	!	!	!
=43	=43	=43	=43	=43	=43	=43	=43	=43	=43	=43	=43	=43	=43	=43	=43	=43	=43	=43	=43	=43	=43	=43	=43	=43	=43
!	!	!	!	!	!	!	!	!	!	!	!	!	!	!	!	!	!	!LO:TX:a:t=3.	!	!LO:TX:a:t=3	!	!	!	!	!
2d\	.	4c#\	.	2.f#/	.	4ee\]	.	2d\	.	4B\	.	2.f#\	.	.	4ee\	.	.	1r	.	1r	.	2a/	.	4ee\	.
.	.	4d\	.	.	.	4ff#\	.	.	.	4d\	.	.	.	.	4ff#\	.	.	.	.	.	.	.	.	4ff#\	.
2B\	.	[2B/	.	.	.	[2dd\	.	2B\	.	2B\	.	.	.	.	[2dd\	.	.	.	.	.	.	2b/	.	2dd\	.
.	.	.	.	4g#X/	.	.	.	.	.	.	.	4g#X\	.	.	.	.	.	.	.	.	.	.	.	.	.
!	!	!	!	!LO:LB:g=original	!	!	!	!	!	!	!	!	!	!	!	!	!	!	!	!	!	!LO:LB:g=original	!	!	!
=44	=44	=44	=44	=44	=44	=44	=44	=44	=44	=44	=44	=44	=44	=44	=44	=44	=44	=44	=44	=44	=44	=44	=44	=44	=44
2c#\	.	4B/]	.	2.e/	.	4dd\]	.	2c#\	.	4B\	.	2.e\	.	.	4dd\]	.	.	1r	.	1r	.	2g#X/	.	4dd\	.
.	.	4c#/	.	.	.	4ee\	.	.	.	4c#\	.	.	.	.	4ee\	.	.	.	.	.	.	.	.	4ee\	.
2A\	.	[2A/	.	.	.	[2cc#\	.	2A\	.	2A\	.	.	.	.	[2cc#\	.	.	.	.	.	.	2a/	.	2cc#\	.
.	.	.	.	4f#/	.	.	.	.	.	.	.	4f#\	.	.	.	.	.	.	.	.	.	.	.	.	.
=45	=45	=45	=45	=45	=45	=45	=45	=45	=45	=45	=45	=45	=45	=45	=45	=45	=45	=45	=45	=45	=45	=45	=45	=45	=45
2B\	.	4A/]	.	2.d/	.	4cc#\]	.	2B\	.	4A\	.	2.d\	.	.	4cc#\]	.	.	1r	.	1r	.	2a/	.	4cc#\	.
.	.	4B/	.	.	.	4dd\	.	.	.	4B\	.	.	.	.	4dd\	.	.	.	.	.	.	.	.	4dd\	.
2G#X\	.	2G#X/	.	.	.	2b\	.	2G#X\	.	2G#X/	.	.	.	.	[2b\	.	.	.	.	.	.	2g#X/	.	2b\	.
.	.	.	.	4e/	.	.	.	.	.	.	.	4e\	.	.	.	.	.	.	.	.	.	.	.	.	.
!	!	!	!	!	!	!LO:LB:g=original	!	!	!	!	!	!	!	!	!	!	!	!	!	!	!	!	!	!	!
=46	=46	=46	=46	=46	=46	=46	=46	=46	=46	=46	=46	=46	=46	=46	=46	=46	=46	=46	=46	=46	=46	=46	=46	=46	=46
!	!	!LO:SIC:v:s=4G#X/	!	!	!	!	!	!	!	!LO:SIC:v:s=4G#X/	!	!	!	!	!	!	!	!	!	!	!	!LO:SIC:v:s=2g#X/	!	!	!
2A\	.	4G/	.	2c#/	.	4b\	.	2A\	.	4G/	.	2c#\	-men	.	4b\]	.	.	2r	.	2r	.	2g/	.	4b\	.
.	.	4A/	.	.	.	4cc#\	.	.	.	4A/	.	.	.	.	4cc#\	.	.	.	.	.	.	.	.	4cc#\	.
2F#\	.	2f#\	.	2cc#\	.	4a\	.	2F#\	.	2c#\	.	2f#\	a-	.	[2a\	.	.	2A/	.	2a\	.	2f#/	.	2a\	.
.	.	.	.	.	.	4aa\	.	.	.	.	.	.	.	.	.	.	.	.	.	.	.	.	.	.	.
=47	=47	=47	=47	=47	=47	=47	=47	=47	=47	=47	=47	=47	=47	=47	=47	=47	=47	=47	=47	=47	=47	=47	=47	=47	=47
2D\	.	2f#\	.	2b\	.	4b\	.	2D\	.	1B	.	(2f#\	.	.	2a\]	.	.	2d\	.	2f#\	.	1b	.	2aa\	.
.	.	.	.	.	.	4aa\	.	.	.	.	.	.	.	.	.	.	.	.	.	.	.	.	.	.	.
2E\	.	2e\	.	2b\	.	4b\	.	2E\	.	.	.	2e\)	.	.	2g#X\	.	.	2e\	.	2e\	.	.	.	2gg#X\	.
.	.	.	.	.	.	4gg#X\	.	.	.	.	.	.	.	.	.	.	.	.	.	.	.	.	.	.	.
=48	=48	=48	=48	=48	=48	=48	=48	=48	=48	=48	=48	=48	=48	=48	=48	=48	=48	=48	=48	=48	=48	=48	=48	=48	=48
2AA/	.	4e\	.	4cc#\	.	4aa\	.	2AA/	-men	2c#\	-men	2e\	-men	.	2a\	-men	.	2A/	.	2e\	.	4cc#\	.	4aa\	.
!	!	!	!	!	!	!	!LO:DY:a:t=pian.	!	!	!	!	!	!	!	!	!	!	!	!	!	!	!	!	!	!
.	.	4r	.	4r	.	4a/	p	.	.	.	.	.	.	.	.	.	.	.	.	.	.	4r	.	4r	.
2r	.	2r	.	2r	.	4g#X/	.	2r	.	2r	.	2r	.	.	2r	.	.	2r	.	2r	.	2r	.	2r	.
.	.	.	.	.	.	4a/	.	.	.	.	.	.	.	.	.	.	.	.	.	.	.	.	.	.	.
!	!	!LO:LB:g=original	!	!	!	!	!	!	!	!	!	!	!	!	!LO:LB:g=original	!	!	!	!	!	!	!	!	!	!
=49	=49	=49	=49	=49	=49	=49	=49	=49	=49	=49	=49	=49	=49	=49	=49	=49	=49	=49	=49	=49	=49	=49	=49	=49	=49
!LO:TX:a:t=15.	!	!LO:TX:a:t=15	!	!	!	!	!	!LO:TX:a:t=28.	!	!LO:TX:a:t=23	!	!LO:TX:a:t=23	!	!	!LO:TX:a:t=23.	!	!	!LO:TX:a:t=13.	!	!LO:TX:a:t=13	!	!LO:TX:a:t=13.	!	!LO:TX:a:t=13.	!
!	!	!	!	!	!LO:DY:b:t=p&colon;	!	!	!	!	!	!	!	!	!	!	!	!	!	!	!	!	!	!	!	!
1r	.	1r	.	4g#X/	p	4b\	.	1r	.	1r	.	1r	.	.	1r	.	.	1r	.	1r	.	1r	.	1r	.
.	.	.	.	4a/	.	4cc#\	.	.	.	.	.	.	.	.	.	.	.	.	.	.	.	.	.	.	.
.	.	.	.	4f#/	.	2dd\	.	.	.	.	.	.	.	.	.	.	.	.	.	.	.	.	.	.	.
.	.	.	.	4g#/	.	.	.	.	.	.	.	.	.	.	.	.	.	.	.	.	.	.	.	.	.
=50	=50	=50	=50	=50	=50	=50	=50	=50	=50	=50	=50	=50	=50	=50	=50	=50	=50	=50	=50	=50	=50	=50	=50	=50	=50
1r	.	1r	.	2a/	.	4cc#\	.	1r	.	1r	.	1r	.	.	1r	.	.	1r	.	1r	.	1r	.	1r	.
.	.	.	.	.	.	4b\	.	.	.	.	.	.	.	.	.	.	.	.	.	.	.	.	.	.	.
.	.	.	.	4r	.	4a\	.	.	.	.	.	.	.	.	.	.	.	.	.	.	.	.	.	.	.
.	.	.	.	4a#X/	.	4ff#\	.	.	.	.	.	.	.	.	.	.	.	.	.	.	.	.	.	.	.
=51	=51	=51	=51	=51	=51	=51	=51	=51	=51	=51	=51	=51	=51	=51	=51	=51	=51	=51	=51	=51	=51	=51	=51	=51	=51
1r	.	1r	.	2b\	.	4dd\	.	1r	.	1r	.	1r	.	.	1r	.	.	1r	.	1r	.	1r	.	1r	.
.	.	.	.	.	.	4cc#\	.	.	.	.	.	.	.	.	.	.	.	.	.	.	.	.	.	.	.
.	.	.	.	4r	.	4b\	.	.	.	.	.	.	.	.	.	.	.	.	.	.	.	.	.	.	.
.	.	.	.	4g#X/	.	4ee\	.	.	.	.	.	.	.	.	.	.	.	.	.	.	.	.	.	.	.
=52	=52	=52	=52	=52	=52	=52	=52	=52	=52	=52	=52	=52	=52	=52	=52	=52	=52	=52	=52	=52	=52	=52	=52	=52	=52
1r	.	1r	.	2a/	.	4cc#\	.	1r	.	1r	.	1r	.	.	1r	.	.	1r	.	1r	.	1r	.	1r	.
.	.	.	.	.	.	4b\	.	.	.	.	.	.	.	.	.	.	.	.	.	.	.	.	.	.	.
.	.	.	.	4r	.	4a\	.	.	.	.	.	.	.	.	.	.	.	.	.	.	.	.	.	.	.
.	.	.	.	4f#/	.	4dd\	.	.	.	.	.	.	.	.	.	.	.	.	.	.	.	.	.	.	.
=53	=53	=53	=53	=53	=53	=53	=53	=53	=53	=53	=53	=53	=53	=53	=53	=53	=53	=53	=53	=53	=53	=53	=53	=53	=53
1r	.	1r	.	2g#X/	.	4b\	.	1r	.	1r	.	1r	.	.	1r	.	.	1r	.	1r	.	1r	.	1r	.
.	.	.	.	.	.	4a\	.	.	.	.	.	.	.	.	.	.	.	.	.	.	.	.	.	.	.
.	.	.	.	4r	.	4g#X\	.	.	.	.	.	.	.	.	.	.	.	.	.	.	.	.	.	.	.
.	.	.	.	4e/	.	4cc#\	.	.	.	.	.	.	.	.	.	.	.	.	.	.	.	.	.	.	.
!	!	!	!	!	!	!LO:LB:g=original	!	!	!	!	!	!	!	!	!	!	!	!	!	!	!	!	!	!	!
=54	=54	=54	=54	=54	=54	=54	=54	=54	=54	=54	=54	=54	=54	=54	=54	=54	=54	=54	=54	=54	=54	=54	=54	=54	=54
1r	.	1r	.	2f#/	.	4a#X/	.	1r	.	1r	.	1r	.	.	1r	.	.	1r	.	1r	.	1r	.	1r	.
.	.	.	.	.	.	4g#X/	.	.	.	.	.	.	.	.	.	.	.	.	.	.	.	.	.	.	.
.	.	.	.	2e/	.	4f#/	.	.	.	.	.	.	.	.	.	.	.	.	.	.	.	.	.	.	.
.	.	.	.	.	.	8g#/L	.	.	.	.	.	.	.	.	.	.	.	.	.	.	.	.	.	.	.
.	.	.	.	.	.	8a#/J	.	.	.	.	.	.	.	.	.	.	.	.	.	.	.	.	.	.	.
!	!	!	!	!LO:LB:g=original	!	!	!	!	!	!	!	!	!	!	!	!	!	!	!	!	!	!	!	!	!
=55	=55	=55	=55	=55	=55	=55	=55	=55	=55	=55	=55	=55	=55	=55	=55	=55	=55	=55	=55	=55	=55	=55	=55	=55	=55
1r	.	1r	.	2dn/	.	4b/	.	1r	.	1r	.	1r	.	.	1r	.	.	1r	.	1r	.	1r	.	1r	.
.	.	.	.	.	.	4b/	.	.	.	.	.	.	.	.	.	.	.	.	.	.	.	.	.	.	.
.	.	.	.	4r	.	4a#X/	.	.	.	.	.	.	.	.	.	.	.	.	.	.	.	.	.	.	.
.	.	.	.	4b\	.	4b/	.	.	.	.	.	.	.	.	.	.	.	.	.	.	.	.	.	.	.
=56	=56	=56	=56	=56	=56	=56	=56	=56	=56	=56	=56	=56	=56	=56	=56	=56	=56	=56	=56	=56	=56	=56	=56	=56	=56
1r	.	1r	.	4a#X/	.	4cc#\	.	1r	.	1r	.	1r	.	.	1r	.	.	1r	.	1r	.	1r	.	1r	.
.	.	.	.	4b/	.	4dd\	.	.	.	.	.	.	.	.	.	.	.	.	.	.	.	.	.	.	.
.	.	.	.	4g#X/	.	2ee\	.	.	.	.	.	.	.	.	.	.	.	.	.	.	.	.	.	.	.
.	.	.	.	4a#/	.	.	.	.	.	.	.	.	.	.	.	.	.	.	.	.	.	.	.	.	.
=57	=57	=57	=57	=57	=57	=57	=57	=57	=57	=57	=57	=57	=57	=57	=57	=57	=57	=57	=57	=57	=57	=57	=57	=57	=57
1r	.	1r	.	2b\	.	4dd\	.	1r	.	1r	.	1r	.	.	1r	.	.	1r	.	1r	.	1r	.	1r	.
.	.	.	.	.	.	8ff#\L	.	.	.	.	.	.	.	.	.	.	.	.	.	.	.	.	.	.	.
.	.	.	.	.	.	8ee\J	.	.	.	.	.	.	.	.	.	.	.	.	.	.	.	.	.	.	.
.	.	.	.	4r	.	8dd\L	.	.	.	.	.	.	.	.	.	.	.	.	.	.	.	.	.	.	.
.	.	.	.	.	.	8cc#\	.	.	.	.	.	.	.	.	.	.	.	.	.	.	.	.	.	.	.
.	.	.	.	4f#/	.	8b\	.	.	.	.	.	.	.	.	.	.	.	.	.	.	.	.	.	.	.
.	.	.	.	.	.	8an\J	.	.	.	.	.	.	.	.	.	.	.	.	.	.	.	.	.	.	.
=58	=58	=58	=58	=58	=58	=58	=58	=58	=58	=58	=58	=58	=58	=58	=58	=58	=58	=58	=58	=58	=58	=58	=58	=58	=58
!	!	!	!	!	!	!	!LO:DY:b:t=for	!	!	!	!	!	!	!	!	!	!	!	!	!	!	!	!	!	!
1r	.	1r	.	4g#X/	.	4b\	f	1r	.	1r	.	1r	.	.	1r	.	.	1r	.	1r	.	1r	.	1r	.
.	.	.	.	4a/	.	4cc#\	.	.	.	.	.	.	.	.	.	.	.	.	.	.	.	.	.	.	.
.	.	.	.	4f#/	.	[2dd\	.	.	.	.	.	.	.	.	.	.	.	.	.	.	.	.	.	.	.
.	.	.	.	4g#/	.	.	.	.	.	.	.	.	.	.	.	.	.	.	.	.	.	.	.	.	.
=59	=59	=59	=59	=59	=59	=59	=59	=59	=59	=59	=59	=59	=59	=59	=59	=59	=59	=59	=59	=59	=59	=59	=59	=59	=59
1r	.	1r	.	2a/	.	4dd\]	.	1r	.	1r	.	1r	.	.	1r	.	.	1r	.	1r	.	1r	.	1r	.
.	.	.	.	.	.	2cc#\	.	.	.	.	.	.	.	.	.	.	.	.	.	.	.	.	.	.	.
.	.	.	.	2e/	.	.	.	.	.	.	.	.	.	.	.	.	.	.	.	.	.	.	.	.	.
.	.	.	.	.	.	4b\	.	.	.	.	.	.	.	.	.	.	.	.	.	.	.	.	.	.	.
=60	=60	=60	=60	=60	=60	=60	=60	=60	=60	=60	=60	=60	=60	=60	=60	=60	=60	=60	=60	=60	=60	=60	=60	=60	=60
1r	.	1r	.	2f#/	.	4b\	.	1r	.	1r	.	1r	.	.	1r	.	.	1r	.	1r	.	1r	.	1r	.
.	.	.	.	.	.	2an\	.	.	.	.	.	.	.	.	.	.	.	.	.	.	.	.	.	.	.
.	.	.	.	2e/	.	.	.	.	.	.	.	.	.	.	.	.	.	.	.	.	.	.	.	.	.
.	.	.	.	.	.	4a#X\	.	.	.	.	.	.	.	.	.	.	.	.	.	.	.	.	.	.	.
!	!	!	!	!	!	!LO:LB:g=original	!	!	!	!	!	!	!	!	!	!	!	!	!	!	!	!	!	!	!
=61	=61	=61	=61	=61	=61	=61	=61	=61	=61	=61	=61	=61	=61	=61	=61	=61	=61	=61	=61	=61	=61	=61	=61	=61	=61
1r	.	1r	.	2d/	.	4a#X/	.	1r	.	1r	.	1r	.	.	1r	.	.	1r	.	1r	.	1r	.	1r	.
.	.	.	.	.	.	2b/	.	.	.	.	.	.	.	.	.	.	.	.	.	.	.	.	.	.	.
.	.	.	.	2d#X/	.	.	.	.	.	.	.	.	.	.	.	.	.	.	.	.	.	.	.	.	.
.	.	.	.	.	.	4an/	.	.	.	.	.	.	.	.	.	.	.	.	.	.	.	.	.	.	.
!	!	!	!	!	!	!	!	!	!	!	!	!	!	!	!	!	!	!LO:LB:g=original	!	!	!	!	!	!LO:LB:g=original	!
=62	=62	=62	=62	=62	=62	=62	=62	=62	=62	=62	=62	=62	=62	=62	=62	=62	=62	=62	=62	=62	=62	=62	=62	=62	=62
!	!	!	!	!	!	!	!	!	!	!	!	!	!	!	!	!	!	!	!	!	!LO:DY:a:t=pp&colon;	!	!LO:DY:a	!	!
!	!	!	!	!	!	!	!	!	!	!	!	!	!	!	!	!	!	!	!	!	!	!	!	!	!LO:DY:b:t=p.
1r	.	1r	.	4e/	.	2g#X/	.	1r	.	1r	.	1r	.	.	1r	.	.	2e\	p	2e\	pp	2ee\	p	2ee\	p
.	.	.	.	2e/	.	.	.	.	.	.	.	.	.	.	.	.	.	.	.	.	.	.	.	.	.
.	.	.	.	.	.	2r	.	.	.	.	.	.	.	.	.	.	.	4e\	.	4e\	.	4ee\	.	4ee\	.
.	.	.	.	4e/	.	.	.	.	.	.	.	.	.	.	.	.	.	4e\	.	4e\	.	4ee\	.	4ee\	.
=63	=63	=63	=63	=63	=63	=63	=63	=63	=63	=63	=63	=63	=63	=63	=63	=63	=63	=63	=63	=63	=63	=63	=63	=63	=63
!	!	!	!	!	!	!	!	!	!	!	!	!	!	!	!	!	!	!	!	!	!	!LO:TX:t=P:problem=nadliczbowa kreska taktowa	!	!	!
1r	.	1r	.	4e/	.	1r	.	1r	.	1r	.	1r	.	.	1r	.	.	2e\	.	2e\	.	2ee\	.	2ee\	.
.	.	.	.	2e/	.	.	.	.	.	.	.	.	.	.	.	.	.	.	.	.	.	.	.	.	.
.	.	.	.	.	.	.	.	.	.	.	.	.	.	.	.	.	.	2e\	.	2e\	.	2ee\	.	2ee\	.
.	.	.	.	4e/	.	.	.	.	.	.	.	.	.	.	.	.	.	.	.	.	.	.	.	.	.
!	!	!	!	!LO:LB:g=original	!	!	!	!	!	!	!	!	!	!	!	!	!	!	!	!	!	!LO:LB:g=original	!	!	!
=64	=64	=64	=64	=64	=64	=64	=64	=64	=64	=64	=64	=64	=64	=64	=64	=64	=64	=64	=64	=64	=64	=64	=64	=64	=64
!	!LO:DY:a:t=pp.	!	!LO:DY:a	!	!	!	!	!	!	!	!	!	!	!	!	!	!	!	!	!	!	!	!	!	!
4G#X\	pp	1B	p	4e/	.	1dd	.	1r	.	1r	.	1r	.	.	1r	.	.	1e	.	1e	.	2ee\	.	2ee\	.
4B\	.	.	.	2e/	.	.	.	.	.	.	.	.	.	.	.	.	.	.	.	.	.	.	.	.	.
4E\	.	.	.	.	.	.	.	.	.	.	.	.	.	.	.	.	.	.	.	.	.	2r	.	2r	.
4G#\	.	.	.	4e/	.	.	.	.	.	.	.	.	.	.	.	.	.	.	.	.	.	.	.	.	.
=65	=65	=65	=65	=65	=65	=65	=65	=65	=65	=65	=65	=65	=65	=65	=65	=65	=65	=65	=65	=65	=65	=65	=65	=65	=65
!	!	!	!	!	!	!	!	!	!	!	!	!	!	!	!	!	!	!	!	!	!	!LO:TX:a:t=12.	!	!LO:TX:a:t=12.	!
2A\	.	1A	.	4e/	.	4cc#\	.	1r	.	1r	.	1r	.	.	1r	.	.	2e\	.	2e\	.	1r	.	1r	.
.	.	.	.	2e/	.	4ee\	.	.	.	.	.	.	.	.	.	.	.	.	.	.	.	.	.	.	.
2r	.	.	.	.	.	4a\	.	.	.	.	.	.	.	.	.	.	.	2r	.	2r	.	.	.	.	.
.	.	.	.	4e/	.	4cc#\	.	.	.	.	.	.	.	.	.	.	.	.	.	.	.	.	.	.	.
!LO:LB:g=original	!	!	!	!	!	!	!	!	!	!	!	!	!	!	!	!	!	!	!	!	!	!	!	!	!
=66	=66	=66	=66	=66	=66	=66	=66	=66	=66	=66	=66	=66	=66	=66	=66	=66	=66	=66	=66	=66	=66	=66	=66	=66	=66
!LO:SIC:v:s=4G#X\	!	!	!	!	!	!LO:TX:t=P:problem=takty 66-67 zapisane repetycją	!	!	!	!	!	!	!	!	!	!	!	!	!	!	!	!	!	!	!
4G\	.	1B	.	4e/	.	[yy1ddyy	.	1r	.	1r	.	1r	.	.	1r	.	.	1e	.	1e	.	1r	.	1r	.
4B\	.	.	.	2e/	.	.	.	.	.	.	.	.	.	.	.	.	.	.	.	.	.	.	.	.	.
4E\	.	.	.	.	.	.	.	.	.	.	.	.	.	.	.	.	.	.	.	.	.	.	.	.	.
!LO:SIC:v:s=4G#X\	!	!	!	!	!	!	!	!	!	!	!	!	!	!	!	!	!	!	!	!	!	!	!	!	!
4G\	.	.	.	4e/	.	.	.	.	.	.	.	.	.	.	.	.	.	.	.	.	.	.	.	.	.
=67	=67	=67	=67	=67	=67	=67	=67	=67	=67	=67	=67	=67	=67	=67	=67	=67	=67	=67	=67	=67	=67	=67	=67	=67	=67
2A\	.	1A	.	4e/	.	4cc#\]yy	.	1r	.	1r	.	1r	.	.	1r	.	.	2A/	.	2e\	.	1r	.	1r	.
.	.	.	.	2e/	.	4ee\yy	.	.	.	.	.	.	.	.	.	.	.	.	.	.	.	.	.	.	.
2r	.	.	.	.	.	4a\yy	.	.	.	.	.	.	.	.	.	.	.	2r	.	2r	.	.	.	.	.
.	.	.	.	4e/	.	4cc#\yy	.	.	.	.	.	.	.	.	.	.	.	.	.	.	.	.	.	.	.
=68	=68	=68	=68	=68	=68	=68	=68	=68	=68	=68	=68	=68	=68	=68	=68	=68	=68	=68	=68	=68	=68	=68	=68	=68	=68
4A#X\	.	1c#	.	4f#/	.	[1ee	.	1r	.	1r	.	1r	.	.	1r	.	.	1F#	.	1f#	.	1r	.	1r	.
4c#\	.	.	.	2f#/	.	.	.	.	.	.	.	.	.	.	.	.	.	.	.	.	.	.	.	.	.
4F#\	.	.	.	.	.	.	.	.	.	.	.	.	.	.	.	.	.	.	.	.	.	.	.	.	.
4A#\	.	.	.	4f#/	.	.	.	.	.	.	.	.	.	.	.	.	.	.	.	.	.	.	.	.	.
=69	=69	=69	=69	=69	=69	=69	=69	=69	=69	=69	=69	=69	=69	=69	=69	=69	=69	=69	=69	=69	=69	=69	=69	=69	=69
2B\	.	4c#\	.	2.f#/	.	4ee\]	.	1r	.	1r	.	1r	.	.	1r	.	.	4F#/	.	4f#\	.	1r	.	1r	.
.	.	4A#X/	.	.	.	4cc#|\	.	.	.	.	.	.	.	.	.	.	.	4r	.	4r	.	.	.	.	.
4r	.	2B/	.	.	.	[2dd\	.	.	.	.	.	.	.	.	.	.	.	2r	.	2r	.	.	.	.	.
4G#X\	.	.	.	4e/	.	.	.	.	.	.	.	.	.	.	.	.	.	.	.	.	.	.	.	.	.
=70	=70	=70	=70	=70	=70	=70	=70	=70	=70	=70	=70	=70	=70	=70	=70	=70	=70	=70	=70	=70	=70	=70	=70	=70	=70
!	!	!	!	!	!	!	!	!	!	!	!	!	!	!	!	!	!	!LO:TX:a:t=30.	!	!LO:TX:a:t=30	!	!	!	!	!
2A\	.	4B/	.	2.e/	.	4dd\]	.	1r	.	1r	.	1r	.	.	1r	.	.	1r	.	1r	.	1r	.	1r	.
.	.	4G#X/	.	.	.	4b|\	.	.	.	.	.	.	.	.	.	.	.	.	.	.	.	.	.	.	.
4r	.	2A/	.	.	.	2cc#\	.	.	.	.	.	.	.	.	.	.	.	.	.	.	.	.	.	.	.
4F#\	.	.	.	4a/	.	.	.	.	.	.	.	.	.	.	.	.	.	.	.	.	.	.	.	.	.
=71	=71	=71	=71	=71	=71	=71	=71	=71	=71	=71	=71	=71	=71	=71	=71	=71	=71	=71	=71	=71	=71	=71	=71	=71	=71
2D\	.	2d\	.	2f#/	.	4b\	.	1r	.	1r	.	1r	.	.	1r	.	.	1r	.	1r	.	1r	.	1r	.
.	.	.	.	.	.	4dd\	.	.	.	.	.	.	.	.	.	.	.	.	.	.	.	.	.	.	.
2E\	.	2B\	.	2d/	.	4g#X/	.	.	.	.	.	.	.	.	.	.	.	.	.	.	.	.	.	.	.
.	.	.	.	.	.	4b/	.	.	.	.	.	.	.	.	.	.	.	.	.	.	.	.	.	.	.
!	!	!	!	!	!	!LO:LB:g=original	!	!	!	!	!	!LO:LB:g=original	!	!	!	!	!	!	!	!	!	!	!	!	!
=72	=72	=72	=72	=72	=72	=72	=72	=72	=72	=72	=72	=72	=72	=72	=72	=72	=72	=72	=72	=72	=72	=72	=72	=72	=72
!	!	!	!	!	!	!	!	!	!	!	!	!	!	!	!	!	!LO:DY:a:t=for	!	!	!	!	!	!	!	!
!	!	!	!	!	!LO:DY:a:t=for	!	!	!	!	!	!	!	!	!	!	!	!	!	!	!	!	!	!	!	!
2AA/	.	2A/	.	2c#/	f	4a/	.	1r	.	2r	.	2r	.	.	4r	.	f	1r	.	1r	.	1r	.	1r	.
!	!	!	!	!	!	!	!LO:DY:b:t=for	!	!	!	!	!	!	!	!	!	!	!	!	!	!	!	!	!	!
.	.	.	.	.	.	4a/	f	.	.	.	.	.	.	.	(4a\	In	.	.	.	.	.	.	.	.	.
*clefC4	*	*	*	*	*	*	*	*	*	*	*	*	*	*	*	*	*	*	*	*	*	*	*	*	*
!	!	!	!LO:DY:a:t=fo	!	!	!	!	!	!	!	!	!	!	!	!	!	!	!	!	!	!	!	!	!	!
!	!	!	!	!	!	!	!	!	!	!	!	!	!	!LO:DY:a:t=for	!	!	!	!	!	!	!	!	!	!	!
4r	.	4r	f	4r	.	4g#X/	.	.	.	4r	.	4r	.	f	4g#X\	.	.	.	.	.	.	.	.	.	.
4c#\	.	4c#\	.	4e/	.	4a/	.	.	.	4c#\	a-	4e\	In	.	4a\)	.	.	.	.	.	.	.	.	.	.
!	!	!LO:LB:g=original	!	!	!	!	!	!	!	!LO:LB:g=original	!	!	!	!	!	!	!	!	!	!	!	!	!	!	!
=73	=73	=73	=73	=73	=73	=73	=73	=73	=73	=73	=73	=73	=73	=73	=73	=73	=73	=73	=73	=73	=73	=73	=73	=73	=73
4G#X/	.	4d\	.	4e/	.	4b\	.	1r	.	4G#X/	.	4e\	glo-	.	4b\	glo-	.	1r	.	1r	.	1r	.	1r	.
4A/	.	4c#\	.	4e/	.	4cc#\	.	.	.	4A/	.	4e\	-ri-	.	4cc#\	-ri-	.	.	.	.	.	.	.	.	.
4F#/	.	4f#\	.	4a/	.	2dd\	.	.	.	4F#/	.	4a\	-a	.	2dd\	-a	.	.	.	.	.	.	.	.	.
4G#/	.	4e\	.	4b/	.	.	.	.	.	4G#/	.	4b\	De-	.	.	.	.	.	.	.	.	.	.	.	.
!	!	!	!	!LO:LB:g=original	!	!	!	!	!	!	!	!	!	!	!	!	!	!	!	!	!	!	!	!	!
=74	=74	=74	=74	=74	=74	=74	=74	=74	=74	=74	=74	=74	=74	=74	=74	=74	=74	=74	=74	=74	=74	=74	=74	=74	=74
4A\	.	4A/	.	4e/	.	4cc#\	.	1r	.	(4A\	.	(4e\	-i	.	(4cc#\	De-	.	1r	.	1r	.	1r	.	1r	.
4B\	.	4B/	.	4d/	.	4b\	.	.	.	4B\)	.	4d\)	.	.	4b\)	.	.	.	.	.	.	.	.	.	.
4c#\	.	4c#/	.	4e/	.	4a\	.	.	.	4c#\	-men	4e\	.	.	4a\	-i	.	.	.	.	.	.	.	.	.
4A#X\	.	4A#X/	.	4f#/	.	4ff#\	.	.	.	4A#X\	a-	4f#\	.	.	4ff#\	Pa-	.	.	.	.	.	.	.	.	.
=75	=75	=75	=75	=75	=75	=75	=75	=75	=75	=75	=75	=75	=75	=75	=75	=75	=75	=75	=75	=75	=75	=75	=75	=75	=75
4B\	.	4B\	.	2f#/	.	4dd\	.	1r	.	(4B\	.	2f#\	Pa-	.	(4dd\	.	.	1r	.	1r	.	1r	.	1r	.
4c#\	.	4c#\	.	.	.	4cc#\	.	.	.	4c#\)	.	.	.	.	4cc#\)	.	.	.	.	.	.	.	.	.	.
4d\	.	4d\	.	4r	.	4b\	.	.	.	4d\	.	4r	.	.	4b\	-tris	.	.	.	.	.	.	.	.	.
4G#X/	.	4G#X/	.	4e/	.	4ee\	.	.	.	4G#X/	.	4e\	-tris	.	4ee\	a-	.	.	.	.	.	.	.	.	.
!LO:LB:g=original	!	!	!	!	!	!	!	!	!	!	!	!	!	!	!	!	!	!	!	!	!	!	!	!	!
=76	=76	=76	=76	=76	=76	=76	=76	=76	=76	=76	=76	=76	=76	=76	=76	=76	=76	=76	=76	=76	=76	=76	=76	=76	=76
2A\	.	2A/	.	2e/	.	4cc#\	.	1r	.	2A/	.	2.e\	a-	.	4cc#\	.	.	1r	.	1r	.	1r	.	1r	.
.	.	.	.	.	.	4b\	.	.	.	.	.	.	.	.	4b\	.	.	.	.	.	.	.	.	.	.
2F#/	.	4c#\	.	4e/	.	4a\	.	.	.	2F#/	.	.	.	.	4a\	.	.	.	.	.	.	.	.	.	.
.	.	4B\	.	4d#X/	.	8b\L	.	.	.	.	.	4d#X\	.	.	8b\L	.	.	.	.	.	.	.	.	.	.
.	.	.	.	.	.	8a\J	.	.	.	.	.	.	.	.	8a\J	.	.	.	.	.	.	.	.	.	.
!	!	!	!	!	!	!	!	!LO:PB:g=original	!	!	!	!	!	!	!	!	!	!	!	!	!	!	!	!	!
=77	=77	=77	=77	=77	=77	=77	=77	=77	=77	=77	=77	=77	=77	=77	=77	=77	=77	=77	=77	=77	=77	=77	=77	=77	=77
4E/	.	4B\	.	4e/	.	2g#X/	.	4r	.	2E/	-men	4e\	-men	.	2g#X\	-men	.	1r	.	1r	.	2r	.	2r	.
*clefF4	*	*	*	*	*	*	*	*	*	*	*	*	*	*	*	*	*	*	*	*	*	*	*	*	*
4E\	.	4e\	.	4g#X/	.	.	.	(4E\	In	.	.	4g#X\	a-	.	.	.	.	.	.	.	.	.	.	.	.
4D#X\	.	4d#X\	.	4f#/	.	4r	.	4D#X\	.	4r	.	4f#\	.	.	4r	.	.	.	.	.	.	4r	.	4r	.
4E\	.	4e\	.	4g#/	.	4ee\	.	4E\)	.	4B\	in	4g#\	.	.	4ee\	a-	.	.	.	.	.	4g#X/	.	4ee\	.
!	!	!	!	!	!	!	!	!	!	!	!	!LO:LB:g=original	!	!	!	!	!	!	!	!	!	!	!	!	!
=78	=78	=78	=78	=78	=78	=78	=78	=78	=78	=78	=78	=78	=78	=78	=78	=78	=78	=78	=78	=78	=78	=78	=78	=78	=78
4F#\	.	4f#\	.	4b\	.	4dd#X\	.	4F#\	glo-	2B\	glo-	4b\	.	.	4dd#X\	.	.	1r	.	1r	.	2b\	.	4dd#X\	.
4G#X\	.	4e\	.	4b\	.	4ee\	.	4G#X\	-ri-	.	.	4b\	.	.	4ee\	.	.	.	.	.	.	.	.	4ee\	.
2A\	.	4d\	.	4e/	.	4cc#X\	.	2A\	-a	4c#\	-ri-	4e\	.	.	4cc#\	.	.	.	.	.	.	4a\	.	4cc#\	.
.	.	4c#\	.	4f#/	.	4dd#\	.	.	.	4B\	-a	4f#\	.	.	4dd#\	.	.	.	.	.	.	4b\	.	4dd#X\	.
!	!	!	!	!	!	!LO:LB:g=original	!	!	!	!	!	!	!	!	!	!	!	!	!	!	!	!	!	!	!
=79	=79	=79	=79	=79	=79	=79	=79	=79	=79	=79	=79	=79	=79	=79	=79	=79	=79	=79	=79	=79	=79	=79	=79	=79	=79
!LO:SIC:v:s=4G#\	!	!	!	!	!	!	!	!	!	!	!	!	!	!	!	!	!	!	!	!	!	!	!	!	!
4G\	.	4g#X\	.	4g#X/	.	4ee\	.	(4G#X\	De-	2B\	De-	4.g#X\	.	.	(4ee\	.	.	1r	.	1r	.	4b\	.	4ee\	.
4F#\	.	4f#\	.	4a/	.	4ff#\	.	4F#\)	.	.	.	.	.	.	4ff#\)	.	.	.	.	.	.	4a\	.	4ff#\	.
.	.	.	.	.	.	.	.	.	.	.	.	8a\	.	.	.	.	.	.	.	.	.	.	.	.	.
4E\	.	4e\	.	4b/	.	4gg#X\	.	4E\	-i	4B\	.	4b\	.	.	4gg#X\	-men	.	.	.	.	.	4g#X\	.	4gg#X\	.
!	!	!	!	!	!	!LO:SIC:v:s=4ee#X\	!	!	!	!	!	!	!	!	!	!	!	!	!	!	!	!	!	!LO:SIC:v:s=4ee#\	!
4c#\	.	4d\	.	4g#/	.	4dd#X\	.	4c#\	Pa-	4c#\	-i	4g#\	.	.	4ee#X\	a-	.	.	.	.	.	4cc#\	.	4ee\	.
!	!	!LO:LB:g=original	!	!	!	!	!	!	!	!LO:LB:g=original	!	!	!	!	!LO:LB:g=original	!	!	!	!	!	!	!	!	!	!
=80	=80	=80	=80	=80	=80	=80	=80	=80	=80	=80	=80	=80	=80	=80	=80	=80	=80	=80	=80	=80	=80	=80	=80	=80	=80
4A\	.	2c#\	.	4a/	.	4ff#\	.	(4A\	.	2c#\	Pa-	4a\	.	.	(4ff#\	.	.	1r	.	1r	.	2cc#\	.	4ff#\	.
!	!	!	!	!	!	!	!	!	!	!	!	!	!	!	!LO:SIC:v:s=4gg#\)	!	!	!	!	!	!	!	!	!LO:SIC:v:s=4gg#X\	!
4G\	.	.	.	4b/	.	4gg#X\	.	4G\)	.	.	.	4b\	.	.	4gg\)	.	.	.	.	.	.	.	.	4gg\	.
4F#\	.	4r	.	4cc#/	.	4aa\	.	4F#\	-tris	2c#\	-tris	4cc#\	.	.	4aa\	-men	.	.	.	.	.	4r	.	4aa\	.
!	!	!	!	!LO:SIC:v:s=4g#X/	!	!	!	!	!	!	!	!LO:SIC:v:s=4g#X\	!	!	!	!	!	!	!	!	!	!	!	!	!
4c#\	.	4c#\	.	4g/	.	4ee#X\	.	4c#\	Pa-	.	.	4g\	.	.	4ee#X\	a-	.	.	.	.	.	4cc#\	.	4ee#X\	.
=81	=81	=81	=81	=81	=81	=81	=81	=81	=81	=81	=81	=81	=81	=81	=81	=81	=81	=81	=81	=81	=81	=81	=81	=81	=81
4A\	.	2c#\	.	4a\	.	4ff#\	.	(4A\	.	2c#\	a-	4a\	.	.	4ff#\	.	.	1r	.	1r	.	2cc#\	.	4ff#\	.
!	!	!	!	!	!	!	!	!	!	!	!	!	!	!	!LO:SIC:v:s=4gg#\	!	!	!	!	!	!	!	!	!LO:SIC:v:s=4gg#X\	!
4G\	.	.	.	4b\	.	4gg#X\	.	4G\)	.	.	.	4b\	.	.	4gg\	.	.	.	.	.	.	.	.	4gg#X\	.
4F#\	.	4r	.	4cc#\	.	4aa\	.	4F#\	-tris	4c#\	-men	4cc#\	.	.	4aa\	-men	.	.	.	.	.	4r	.	4aa\	.
*	*	*	*	*	*	*	*	*	*	*	*ij	*	*	*	*	*ij	*	*	*	*	*	*	*	*	*
4B\	.	4B/	.	4f#/	.	4dd#X\	.	4B\	a-	4B\	a-	4f#\	.	.	4dd#X\	a-	.	.	.	.	.	4b\	.	4dd#X\	.
=82	=82	=82	=82	=82	=82	=82	=82	=82	=82	=82	=82	=82	=82	=82	=82	=82	=82	=82	=82	=82	=82	=82	=82	=82	=82
4Gn\	.	2B/	.	4gn/	.	4een\	.	4Gn\	.	2B\	-men	4gn\	.	.	(4ee\	.	.	1r	.	1r	.	2b\	.	4ee\	.
4F#\	.	.	.	4a/	.	4ff#\	.	4F#\	.	.	.	4a\	.	.	4ff#\)	.	.	.	.	.	.	.	.	4ff#\	.
4E\	.	4r	.	4b/	.	4ggn\	.	4E\	-men	4r	.	4b\	.	.	4ggn\	-men	.	.	.	.	.	4r	.	4ggn\	.
!	!	!	!	!	!	!	!	!	!	!	!	!	!	!	!	!	!	!	!	!	!	!	!	!LO:SIC:v:s=4dd#X\	!
4A\	.	4b\	.	4f#/	.	4dd#X\	.	4A\	a-	4B\	a-	4f#\	.	.	4dd#X\	a-	.	.	.	.	.	4b\	.	4dd\	.
!	!	!	!	!LO:LB:g=original	!	!	!	!	!	!	!	!	!	!	!	!	!	!	!	!	!	!	!	!LO:LB:g=original	!
=83	=83	=83	=83	=83	=83	=83	=83	=83	=83	=83	=83	=83	=83	=83	=83	=83	=83	=83	=83	=83	=83	=83	=83	=83	=83
4G\	.	2b\	.	4g/	.	4ee\	.	4G\	.	2B\	-men	4g\	.	.	(4ee\	.	.	1r	.	1r	.	2b\	.	4ee\	.
4F#\	.	.	.	4a/	.	4ff#\	.	4F#\	.	.	.	4a\	.	.	4ff#\)	.	.	.	.	.	.	.	.	4ff#\	.
4E\	.	4r	.	4b/	.	4gg\	.	4E\	.	4r	.	4b\	.	.	4gg\	-men	.	.	.	.	.	4r	.	4gg\	.
4A\	.	4a\	.	4e/	.	4cc#\	.	4A\	.	4A\	a-	4e\	.	.	4cc#\	a-	.	.	.	.	.	4a/	.	4cc#\	.
!	!	!	!	!	!	!	!	!LO:LB:g=original	!	!	!	!LO:LB:g=original	!	!	!	!	!	!	!	!	!	!LO:LB:g=original	!	!	!
=84	=84	=84	=84	=84	=84	=84	=84	=84	=84	=84	=84	=84	=84	=84	=84	=84	=84	=84	=84	=84	=84	=84	=84	=84	=84
4F#\	.	2a\	.	4f#/	.	4ddn\	.	4F#\	.	2A\	-men	4f#\	.	.	(4dd\	.	.	1r	.	1r	.	2a/	.	4dd\	.
4E\	.	.	.	4g/	.	4ee\	.	4E\	.	.	.	4g\	.	.	4ee\)	.	.	.	.	.	.	.	.	4ee\	.
4D\	.	4r	.	4a/	.	4ff#\	.	4D\	.	4r	.	4a\	.	.	4ff#\	-men	.	.	.	.	.	4r	.	4ff#\	.
4G\	.	4g\	.	4d/	.	4b\	.	4G\	.	4G/	a-	4d\	.	.	4b\	a-	.	.	.	.	.	4g/	.	4b\	.
=85	=85	=85	=85	=85	=85	=85	=85	=85	=85	=85	=85	=85	=85	=85	=85	=85	=85	=85	=85	=85	=85	=85	=85	=85	=85
4E\	.	2g\	.	4e/	.	4cc#\	.	4E\	.	2G/	-men	4e\	.	.	(4cc#\	.	.	1r	.	1r	.	2g/	.	4cc#\	.
*	*	*	*	*	*	*	*	*	*	*	*Xij	*	*	*	*	*	*	*	*	*	*	*	*	*	*
4D\	.	.	.	4f#/	.	4dd\	.	4D\	.	.	.	4f#\	.	.	4dd\)	.	.	.	.	.	.	.	.	4dd\	.
4C#\	.	4r	.	4g/	.	4ee\	.	4C#\	.	4r	.	4g\	.	.	4ee\	-men	.	.	.	.	.	4r	.	4ee\	.
4F#\	.	4f#\	.	4c#/	.	4a#X/	.	4F#\	.	4c#\	a-	4c#\	.	.	4a#X\	a-	.	.	.	.	.	4a/	.	4a#X/	.
!	!	!	!	!	!	!LO:LB:g=original	!	!	!	!	!	!	!	!	!	!	!	!	!	!	!	!	!	!	!
=86	=86	=86	=86	=86	=86	=86	=86	=86	=86	=86	=86	=86	=86	=86	=86	=86	=86	=86	=86	=86	=86	=86	=86	=86	=86
4D/	.	2f#\	.	4d/	.	4b\	.	4D/	.	4B\	.	4d\	.	.	(4b\	.	.	1r	.	1r	.	2b/	.	4b\	.
4C#/	.	.	.	4e/	.	4cc#\	.	4C#/	.	4c#\	.	4e\	.	.	4cc#\)	.	.	.	.	.	.	.	.	4cc#\	.
4BB/	.	4r	.	4f#/	.	4dd\	.	4BB/	.	4d\	.	4f#\	.	.	4dd\	-men	.	.	.	.	.	4r	.	4dd\	.
!	!	!	!	!	!	!	!	!	!	!	!	!	!	!	!	!	!	!	!	!	!	!	!	!LO:SIC:v:s=4g#X/	!
4E/	.	4e\	.	4B/	.	4g#X/	.	4E\	.	4B\	.	4g#X\	.	.	4g#X\	a-	.	.	.	.	.	4g/	.	4g/	.
!LO:LB:g=original	!	!	!	!	!	!	!	!	!	!LO:LB:g=original	!	!	!	!	!	!	!	!	!	!	!	!	!	!	!
=87	=87	=87	=87	=87	=87	=87	=87	=87	=87	=87	=87	=87	=87	=87	=87	=87	=87	=87	=87	=87	=87	=87	=87	=87	=87
4Cn/	.	2e\	.	4cn/	.	4an/	.	4Cn/	.	4cn\	.	2a\	-men	.	(4a\	.	.	1r	.	1r	.	2a\	.	4an/	.
4BB/	.	.	.	4d/	.	4b/	.	4BB/	.	4d\	.	.	.	.	4b\)	.	.	.	.	.	.	.	.	4b/	.
4AA/	.	4r	.	4e/	.	4ccn\	.	4AA/	.	4e\	.	4r	.	.	4ccn\	-men	.	.	.	.	.	4r	.	4ccn/	.
4D/	.	4d\	.	4A/	.	4f#/	.	4D/	.	4A\	.	4f#\	a-	.	4f#/	a-	.	.	.	.	.	4f#/	.	4f#/	.
=88	=88	=88	=88	=88	=88	=88	=88	=88	=88	=88	=88	=88	=88	=88	=88	=88	=88	=88	=88	=88	=88	=88	=88	=88	=88
2GG/	.	4g\	.	2B/	.	2gn/	.	2G\	-men	4B\	-men	2g\	-men	.	2g/	-men	.	1r	.	1r	.	2g/	.	2g/	.
*	*	*	*	*	*	*	*	*	*	*	*	*	*	*	*	*Xij	*	*	*	*	*	*	*	*	*
.	.	4G/	.	.	.	.	.	.	.	4G/	In	.	.	.	.	.	.	.	.	.	.	.	.	.	.
4r	.	4A/	.	4cn/	.	2r	.	4r	.	4F#/	.	4r	.	.	2r	.	.	.	.	.	.	2r	.	2r	.
4G\	.	4G/	.	4B/	.	.	.	4G\	a-	4G/	.	4d\	In	.	.	.	.	.	.	.	.	.	.	.	.
!	!	!LO:LB:g=original	!	!	!	!	!	!	!	!	!	!	!	!	!LO:LB:g=original	!	!	!	!	!	!	!	!	!	!
=89	=89	=89	=89	=89	=89	=89	=89	=89	=89	=89	=89	=89	=89	=89	=89	=89	=89	=89	=89	=89	=89	=89	=89	=89	=89
!	!	!	!	!	!	!LO:TX:b:t=10	!	!	!	!	!	!	!	!	!LO:TX:a:t=10	!	!	!	!	!	!	!	!	!LO:TX:a:t=11.	!
4F#\	.	4A/	.	4d/	.	1r	.	4F#\	.	4A\	glo-	4d\	glo-	.	1r	.	.	1r	.	1r	.	1r	.	1r	.
4G\	.	4B/	.	4d/	.	.	.	4G\	.	4B\	-ri-	4d\	-ri-	.	.	.	.	.	.	.	.	.	.	.	.
4E\	.	2cn/	.	4g/	.	.	.	4E\	.	2cn\	-a	(4g\	-a	.	.	.	.	.	.	.	.	.	.	.	.
4F#\	.	.	.	4a/	.	.	.	4F#\	.	.	.	4a\)	.	.	.	.	.	.	.	.	.	.	.	.	.
!	!	!	!	!	!	!	!	!	!	!	!	!LO:LB:g=original	!	!	!	!	!	!	!	!	!	!	!	!	!
=90	=90	=90	=90	=90	=90	=90	=90	=90	=90	=90	=90	=90	=90	=90	=90	=90	=90	=90	=90	=90	=90	=90	=90	=90	=90
4G\	.	4B/	.	2d/	.	1r	.	4G\	.	(4B\	De-	2d\	De-	.	1r	.	.	1r	.	1r	.	1r	.	1r	.
4A\	.	4A/	.	.	.	.	.	4A\	.	4A\)	.	.	.	.	.	.	.	.	.	.	.	.	.	.	.
4B\	.	4G/	.	4d/	.	.	.	4B\	.	4G\	-i	4d\	-i	.	.	.	.	.	.	.	.	.	.	.	.
4G#X\	.	4e\	.	4e/	.	.	.	4G#X\	.	4e\	Pa-	4e\	Pa-	.	.	.	.	.	.	.	.	.	.	.	.
=91	=91	=91	=91	=91	=91	=91	=91	=91	=91	=91	=91	=91	=91	=91	=91	=91	=91	=91	=91	=91	=91	=91	=91	=91	=91
2A\	.	4c#\	.	2e/	.	1r	.	2A\	-men	4c#\	.	2e\	.	.	1r	.	.	1r	.	1r	.	1r	.	1r	.
.	.	4B\	.	.	.	.	.	.	.	4B\	.	.	.	.	.	.	.	.	.	.	.	.	.	.	.
4r	.	4A\	.	4r	.	.	.	4r	.	4A\	-tris	4r	.	.	.	.	.	.	.	.	.	.	.	.	.
4F#\	.	4d\	.	4d/	.	.	.	4F#\	a-	4d\	a-	4d\	-tris	.	.	.	.	.	.	.	.	.	.	.	.
!	!	!	!	!LO:LB:g=original	!	!	!	!LO:LB:g=original	!	!	!	!	!	!	!	!	!	!	!	!	!	!	!	!	!
=92	=92	=92	=92	=92	=92	=92	=92	=92	=92	=92	=92	=92	=92	=92	=92	=92	=92	=92	=92	=92	=92	=92	=92	=92	=92
2G\	.	4B/	.	2d/	.	1r	.	2G\	-men	4B\	.	2d\	a-	.	1r	.	.	1r	.	1r	.	1r	.	1r	.
.	.	4A/	.	.	.	.	.	.	.	4A\	.	.	.	.	.	.	.	.	.	.	.	.	.	.	.
4r	.	4G/	.	4r	.	.	.	4r	.	4G\	.	4r	.	.	.	.	.	.	.	.	.	.	.	.	.
!	!	!	!	!	!	!	!	!	!	!LO:SIC:v:s=4cn\	!	!	!	!	!	!	!	!	!	!	!	!	!	!	!
4E\	.	4cn/	.	4e/	.	.	.	4E\	a-	4c#\	.	4e\	.	.	.	.	.	.	.	.	.	.	.	.	.
!	!	!	!	!	!	!	!	!	!	!LO:LB:g=original	!	!	!	!	!	!	!	!	!	!	!	!	!	!	!
=93	=93	=93	=93	=93	=93	=93	=93	=93	=93	=93	=93	=93	=93	=93	=93	=93	=93	=93	=93	=93	=93	=93	=93	=93	=93
!	!	!	!	!	!	!	!	!	!	!	!	!LO:N:vis=2.	!	!	!	!	!	!	!	!	!	!	!	!	!
2F#\	.	4A/	.	2e/	.	1r	.	2F#\	.	4A/	.	2e\	.	.	1r	.	.	1r	.	1r	.	1r	.	1r	.
.	.	4G/	.	.	.	.	.	.	.	4G/	.	.	.	.	.	.	.	.	.	.	.	.	.	.	.
4r	.	4F#/	.	4r	.	.	.	4r	.	4F#/	.	4r	.	.	.	.	.	.	.	.	.	.	.	.	.
4D#X\	.	4B/	.	4d#X/	.	.	.	4D#X\	.	4B\	.	4d#X\	.	.	.	.	.	.	.	.	.	.	.	.	.
=94	=94	=94	=94	=94	=94	=94	=94	=94	=94	=94	=94	=94	=94	=94	=94	=94	=94	=94	=94	=94	=94	=94	=94	=94	=94
2E\	.	2G/	.	4e/	.	1r	.	2E\	-men	2G/	-men	4e\	-men	.	1r	.	.	1r	.	1r	.	1r	.	1r	.
.	.	.	.	4e/	.	.	.	.	.	.	.	(4e\	In	.	.	.	.	.	.	.	.	.	.	.	.
4r	.	4r	.	4d#X/	.	.	.	4r	.	4r	.	4d#X\	.	.	.	.	.	.	.	.	.	.	.	.	.
4E\	.	4g\	.	4e/	.	.	.	4E\	a-	4B\	In	4e\)	.	.	.	.	.	.	.	.	.	.	.	.	.
=95	=95	=95	=95	=95	=95	=95	=95	=95	=95	=95	=95	=95	=95	=95	=95	=95	=95	=95	=95	=95	=95	=95	=95	=95	=95
4D#X\	.	4f#\	.	4f#/	.	1r	.	4D#X\	.	4B\	glo-	4f#\	glo-	.	1r	.	.	1r	.	1r	.	1r	.	1r	.
4E\	.	4e\	.	4g/	.	.	.	4E\	.	4B\	-ri-	4g\	-ri-	.	.	.	.	.	.	.	.	.	.	.	.
4C#\	.	4e\	.	2a/	.	.	.	4C#/	.	(4e\	-a	2a\	-a	.	.	.	.	.	.	.	.	.	.	.	.
4D#\	.	4f#\	.	.	.	.	.	4D#X\	.	4f#\)	.	.	.	.	.	.	.	.	.	.	.	.	.	.	.
!	!	!	!	!	!	!	!	!	!	!	!	!LO:LB:g=original	!	!	!	!	!	!	!	!	!	!	!	!	!
=96	=96	=96	=96	=96	=96	=96	=96	=96	=96	=96	=96	=96	=96	=96	=96	=96	=96	=96	=96	=96	=96	=96	=96	=96	=96
4E\	.	4B/	.	4g/	.	1r	.	4E\	.	2B\	De-	4g\	De-	.	1r	.	.	1r	.	1r	.	1r	.	1r	.
4F#\	.	4A/	.	4f#/	.	.	.	4F#\	.	.	.	4f#\	-i	.	.	.	.	.	.	.	.	.	.	.	.
4G\	.	4G/	.	4e/	.	.	.	4G\	.	4B\	-i	4e\	.	.	.	.	.	.	.	.	.	.	.	.	.
!	!	!LO:SIC:v:s=4cn\	!	!	!	!	!	!	!	!	!	!	!	!	!	!	!	!	!	!	!	!	!	!	!
4E\	.	4c#\	.	4ccn\	.	.	.	4E\	.	4G\	Pa-	4ccn\	Pa-	.	.	.	.	.	.	.	.	.	.	.	.
!LO:LB:g=original	!	!LO:LB:g=original	!	!	!	!	!	!	!	!	!	!	!	!	!	!	!	!	!	!	!	!	!	!	!
=97	=97	=97	=97	=97	=97	=97	=97	=97	=97	=97	=97	=97	=97	=97	=97	=97	=97	=97	=97	=97	=97	=97	=97	=97	=97
!	!	!LO:SIC:v:s=2cn\	!	!	!	!	!	!	!	!	!	!	!	!	!	!	!	!	!	!	!	!	!	!	!
2F#\	.	2c#\	.	4a/	.	1r	.	2F#\	-men	2c#\	.	(4a\	.	.	1r	.	.	1r	.	1r	.	1r	.	1r	.
.	.	.	.	4g/	.	.	.	.	.	.	.	4g\)	.	.	.	.	.	.	.	.	.	.	.	.	.
4r	.	4r	.	4f#/	.	.	.	4r	.	4r	.	4f#\	-tris	.	.	.	.	.	.	.	.	.	.	.	.
!LO:SIC:v:s=4D#X\	!	!	!	!	!	!	!	!	!	!	!	!	!	!	!	!	!	!	!	!	!	!	!	!	!
4D\	.	4B\	.	4b\	.	.	.	4D#X\	a-	4B\	.	4b\	a-	.	.	.	.	.	.	.	.	.	.	.	.
=98	=98	=98	=98	=98	=98	=98	=98	=98	=98	=98	=98	=98	=98	=98	=98	=98	=98	=98	=98	=98	=98	=98	=98	=98	=98
2E\	.	2B\	.	4g/	.	1r	.	2E\	.	2B\	-tris	4g\	.	.	1r	.	.	1r	.	1r	.	1r	.	1r	.
.	.	.	.	4f#/	.	.	.	.	.	.	.	4f#\	.	.	.	.	.	.	.	.	.	.	.	.	.
4r	.	4r	.	4e/	.	.	.	4r	.	4r	.	4e\	.	.	.	.	.	.	.	.	.	.	.	.	.
4C#X/	.	4e\	.	4a/	.	.	.	4C#/	.	4e\	a-	4a\	.	.	.	.	.	.	.	.	.	.	.	.	.
!	!	!	!	!	!	!	!	!	!	!LO:LB:g=original	!	!	!	!	!	!	!	!	!	!	!	!	!	!	!
=99	=99	=99	=99	=99	=99	=99	=99	=99	=99	=99	=99	=99	=99	=99	=99	=99	=99	=99	=99	=99	=99	=99	=99	=99	=99
4D#X\	.	2f#\	.	2a/	.	2r	.	4D#X/	.	2f#\	.	2a\	.	.	2r	.	.	1r	.	1r	.	1r	.	1r	.
8C#\L	.	.	.	.	.	.	.	8C#/L	.	.	.	.	.	.	.	.	.	.	.	.	.	.	.	.	.
8D#\J	.	.	.	.	.	.	.	8D#/J	.	.	.	.	.	.	.	.	.	.	.	.	.	.	.	.	.
4E\	.	2B/	.	2g/	.	2ee\	.	4E\	.	2e\	.	2g\	.	.	[2ee\	a-	.	.	.	.	.	.	.	.	.
4D#\	.	.	.	.	.	.	.	4D#\	.	.	.	.	.	.	.	.	.	.	.	.	.	.	.	.	.
!	!	!	!	!	!	!	!	!LO:LB:g=original	!	!	!	!	!	!	!	!	!	!	!	!	!	!	!	!	!
=100	=100	=100	=100	=100	=100	=100	=100	=100	=100	=100	=100	=100	=100	=100	=100	=100	=100	=100	=100	=100	=100	=100	=100	=100	=100
4C#/	.	2A/	.	2g/	.	2ee\	.	4C#/	.	2A\	.	2g\	.	.	2ee\]	.	.	2r	.	2r	.	2r	.	2r	.
8BB/L	.	.	.	.	.	.	.	8BB/L	.	.	.	.	.	.	.	.	.	.	.	.	.	.	.	.	.
8C#/J	.	.	.	.	.	.	.	8C#/J	.	.	.	.	.	.	.	.	.	.	.	.	.	.	.	.	.
!	!	!	!	!	!	!	!	!	!	!	!	!	!	!	!	!	!	!	!	!	!LO:DY:a:t=for&colon;	!	!	!	!
4D/	.	4d/	.	2f#/	.	2dd\	.	4D/	.	2d\	.	2f#\	.	.	2dd\	-men	.	2d\	.	2f#\	f	2dd\	.	2ff#\	.
4B\	.	4B/	.	.	.	.	.	4B\	.	.	.	.	.	.	.	.	.	.	.	.	.	.	.	.	.
!	!	!	!	!LO:LB:g=original	!	!	!	!	!	!	!	!	!	!	!	!	!	!	!	!	!	!	!	!	!
=101	=101	=101	=101	=101	=101	=101	=101	=101	=101	=101	=101	=101	=101	=101	=101	=101	=101	=101	=101	=101	=101	=101	=101	=101	=101
4G\	.	2B/	.	1e	.	2dd\	.	4G\	.	2B\	.	1e	.	.	(2dd\	a-	.	2d\	.	1e	.	2dd\	.	1ee	.
4E\	.	.	.	.	.	.	.	4E\	.	.	.	.	.	.	.	.	.	.	.	.	.	.	.	.	.
4A\	.	2A/	.	.	.	2cc#\	.	4A\	.	2A\	.	.	.	.	2cc#\)	.	.	2A/	.	.	.	2cc#\	.	.	.
4AA/	.	.	.	.	.	.	.	4AA/	.	.	.	.	.	.	.	.	.	.	.	.	.	.	.	.	.
=102	=102	=102	=102	=102	=102	=102	=102	=102	=102	=102	=102	=102	=102	=102	=102	=102	=102	=102	=102	=102	=102	=102	=102	=102	=102
!	!	!	!	!	!	!	!	!	!	!	!	!	!	!	!	!	!	!	!	!LO:TX:a:t=e:note=korekta	!	!	!	!	!
2D\	.	2A/	.	4f#/	.	4dd\	.	2D/	-men	2A\	-men	4f#\	-men	.	4dd\	-men	.	4d\	.	4f#\	.	2dd\	.	4ff#\	.
.	.	.	.	4f#/	.	4dd\	.	.	.	.	.	(4f#\	In	.	(4dd\	In	.	4r	.	4r	.	.	.	4dd\	.
4r	.	4r	.	4e/	.	4cc#\	.	4r	.	4r	.	4e\	.	.	4cc#\	.	.	4r	.	4r	.	4r	.	4cc#\	.
!	!	!	!	!	!	!	!	!	!	!	!	!	!	!	!	!	!	!	!	!LO:TX:a:t=c:note=korekta	!	!	!	!	!
4d\	.	4a\	.	4f#/	.	4dd\	.	4D/	a-	4A\	a-	4f#\)	.	.	4dd\)	.	.	4r	.	4d\	.	4a/	.	4dd\	.
!	!	!	!	!	!	!	!	!	!	!	!	!LO:LB:g=original	!	!	!	!	!	!	!	!LO:LB:g=original	!	!LO:LB:g=original	!	!	!
=103	=103	=103	=103	=103	=103	=103	=103	=103	=103	=103	=103	=103	=103	=103	=103	=103	=103	=103	=103	=103	=103	=103	=103	=103	=103
4c#\	.	4e\	.	4a\	.	4ee\	.	4C#/	.	4e\	.	4b\	glo-	.	4ee\	glo-	.	4A\	.	4e\	.	2a\	.	4ee\	.
4d\	.	4d\	.	4a\	.	4ff#\	.	4D/	.	2d\	.	4a\	-ri-	.	4ff#\	-ri-	.	4d\	.	4f#\	.	.	.	4ff#\	.
4B\	.	4c#\	.	4dd\	.	2gg\	.	4BB/	.	.	.	(4b\	-a	.	2ggn\	-a	.	2e\	.	2g\	.	4dd\	.	2gg\	.
4c#\	.	4B\	.	4ee\	.	.	.	4C#/	.	4c#\	.	4a\)	.	.	.	.	.	.	.	.	.	4ee\	.	.	.
!	!	!	!	!	!	!LO:LB:g=original	!	!	!	!	!	!	!	!	!	!	!	!	!	!	!	!	!	!LO:LB:g=original	!
=104	=104	=104	=104	=104	=104	=104	=104	=104	=104	=104	=104	=104	=104	=104	=104	=104	=104	=104	=104	=104	=104	=104	=104	=104	=104
2d\	.	4A/	.	4a/	.	4ff#\	.	2D/	-men	4d\	.	4a\	De-	.	(4ff#\	De-	.	4d\	.	4f#\	.	2a/	.	4ff#\	.
.	.	4c#/	.	4g/	.	4ee\	.	.	.	4e\	.	4g\	-i	.	4ee\)	.	.	4A/	.	4e\	.	.	.	4ee\	.
4r	.	4d\	.	4f#/	.	4dd\	.	4r	.	4A\	.	4f#\	Pa-	.	4dd\	-i	.	4F#/	.	4d\	.	4r	.	4dd\	.
4d#X\	.	4f#\	.	4f#/	.	4bb\	.	4D#X/	a-	4B\	.	4f#\	.	.	4bb\	Pa-	.	4r	.	4r	.	4b/	.	4ff#\	.
!	!	!	!	!	!	!	!	!	!	!	!	!	!	!	!	!	!	!LO:LB:g=original	!	!	!	!	!	!	!
=105	=105	=105	=105	=105	=105	=105	=105	=105	=105	=105	=105	=105	=105	=105	=105	=105	=105	=105	=105	=105	=105	=105	=105	=105	=105
!	!	!	!	!	!	!	!	!	!	!	!	!	!	!	!	!	!	!LO:TX:a:t=3.	!	!LO:TX:a:t=3	!	!	!	!	!
2e\	.	4e\	.	4g/	.	4gg\	.	2E\	.	2B\	-men	4g\	.	.	(4gg\	.	.	1r	.	1r	.	2b/	.	4gg\	.
.	.	4f#\	.	4a/	.	4ff#\	.	.	.	.	.	4a\	.	.	4ff#\)	.	.	.	.	.	.	.	.	4ff#\	.
4r	.	4g\	.	4b/	.	4ee\	.	4r	.	4r	.	4b\	.	.	4ee\	-tris	.	.	.	.	.	4r	.	4ee\	.
4c#\	.	4e\	.	4e/	.	4aa\	.	4C#/	.	4A\	a-	4e\	-tris	.	4aa\	a-	.	.	.	.	.	4a/	.	4ee\	.
!	!	!LO:LB:g=original	!	!	!	!	!	!	!	!LO:LB:g=original	!	!	!	!	!	!	!	!	!	!	!	!	!	!	!
=106	=106	=106	=106	=106	=106	=106	=106	=106	=106	=106	=106	=106	=106	=106	=106	=106	=106	=106	=106	=106	=106	=106	=106	=106	=106
2d\	.	4d\	.	4f#/	.	4ff#\	.	2D/	.	4d\	.	4f#\	a-	.	4ff#\	.	.	1r	.	1r	.	2a/	.	4ff#\	.
.	.	4e\	.	4g/	.	4ee\	.	.	.	4e\	.	4g\	.	.	4ee\	.	.	.	.	.	.	.	.	4ee\	.
4r	.	4f#\	.	4a/	.	4dd\	.	4r	.	4f#\	.	4a\	.	.	4dd\	-men	.	.	.	.	.	4r	.	4dd\	.
*	*	*	*	*	*	*	*	*	*	*	*	*	*	*	*	*ij	*	*	*	*	*	*	*	*	*
4B\	.	4d\	.	4d/	.	4gg\	.	4B\	.	4d\	.	4d\	.	.	4gg\	a-	.	.	.	.	.	4dd\	.	4gg\	.
!LO:LB:g=original	!	!	!	!	!	!	!	!	!	!	!	!	!	!	!	!	!	!	!	!	!	!	!	!	!
=107	=107	=107	=107	=107	=107	=107	=107	=107	=107	=107	=107	=107	=107	=107	=107	=107	=107	=107	=107	=107	=107	=107	=107	=107	=107
2c#\	.	4c#\	.	4e/	.	4ee\	.	2c#\	.	4c#\	.	4e\	.	.	(4ee\	.	.	1r	.	1r	.	2cc#\	.	4ee\	.
.	.	4d\	.	4f#/	.	4dd\	.	.	.	4d\	.	4f#\	.	.	4dd\)	.	.	.	.	.	.	.	.	4dd\	.
4r	.	4e\	.	4g/	.	4cc#\	.	4r	.	4e\	.	4g\	.	.	4cc#\	-men	.	.	.	.	.	4r	.	4cc#\	.
4A\	.	4c#\	.	4c#/	.	4ff#\	.	4A\	.	4c#\	.	4c#/	.	.	4ff#\	a-	.	.	.	.	.	4cc#\	.	4ff#\	.
!	!	!	!	!	!	!	!	!LO:LB:g=original	!	!	!	!	!	!	!	!	!	!	!	!	!	!	!	!	!
=108	=108	=108	=108	=108	=108	=108	=108	=108	=108	=108	=108	=108	=108	=108	=108	=108	=108	=108	=108	=108	=108	=108	=108	=108	=108
2B\	.	4B\	.	4d/	.	4dd\	.	2B\	-men	4B\	.	4d\	.	.	(4dd\	.	.	2r	.	2r	.	2b\	.	4dd\	.
.	.	4c#\	.	4e/	.	4cc#\	.	.	.	4c#\	.	4e\	.	.	4cc#\)	.	.	.	.	.	.	.	.	4cc#\	.
4r	.	4d\	.	4f#/	.	4b\	.	4r	.	4d\	.	4f#\	.	.	4b\	-men	.	4r	.	4r	.	4r	.	4b\	.
*	*	*	*	*	*	*	*	*	*	*	*	*	*	*	*	*Xij	*	*	*	*	*	*	*	*	*
4G#X\	.	4B\	.	4B/	.	4ee\	.	4G#X\	a-	4B\	.	4g#X\	.	.	4ee\	a-	.	4e\	.	4e\	.	4b\	.	4ee\	.
!	!	!	!	!	!	!	!	!	!	!	!	!LO:PB:g=original	!	!	!LO:LB:g=original	!	!	!	!	!	!	!	!	!	!
=109	=109	=109	=109	=109	=109	=109	=109	=109	=109	=109	=109	=109	=109	=109	=109	=109	=109	=109	=109	=109	=109	=109	=109	=109	=109
!LO:TX:a:t=Tasto	!	!	!	!	!	!	!	!	!	!	!	!	!	!	!	!	!	!	!	!	!	!	!	!	!
2A\	.	2A/	.	2c#/	.	4cc#\	.	2A\	-men	2A\	-men	2a\	-men	.	4cc#\	-a-	.	2e\	.	2e\	.	2a\	.	2cc#\	.
.	.	.	.	.	.	4a\	.	.	.	.	.	.	.	.	4a\	.	.	.	.	.	.	.	.	.	.
[2A\	.	2e\	.	4a/	.	4b\	.	2A\	a-	2e\	a-	4a\	a-	.	4b\	.	.	2r	.	2r	.	2r	.	2r	.
.	.	.	.	4g/	.	4cc#\	.	.	.	.	.	4gn\	.	.	4cc#\	.	.	.	.	.	.	.	.	.	.
=110	=110	=110	=110	=110	=110	=110	=110	=110	=110	=110	=110	=110	=110	=110	=110	=110	=110	=110	=110	=110	=110	=110	=110	=110	=110
!	!	!	!	!	!	!	!	!	!	!	!	!	!	!	!	!	!	!	!	!	!	!LO:TX:a:t=6	!	!LO:TX:a:t=6.	!
1A_	.	4f#\	.	4f#/	.	4dd\	.	1A	.	4d\	.	4f#\	.	.	4dd\	.	.	2A/	.	2A/	.	1r	.	1r	.
.	.	4g\	.	4e/	.	4ee\	.	.	.	4c#\	.	4e\	.	.	4ee\	.	.	.	.	.	.	.	.	.	.
!	!	!	!	!LO:LB:g=original	!	!	!	!	!	!	!	!	!	!	!	!	!	!	!	!	!	!	!	!	!
.	.	4a\	.	4d/	.	2ff#\	.	.	.	2d\	.	4d\	.	.	[2ff#\	.	.	2r	.	2r	.	.	.	.	.
.	.	8g\L	.	8e/L	.	.	.	.	.	.	.	8e\L	.	.	.	.	.	.	.	.	.	.	.	.	.
.	.	8f#\J	.	8f#/J	.	.	.	.	.	.	.	8f#\J	.	.	.	.	.	.	.	.	.	.	.	.	.
=111	=111	=111	=111	=111	=111	=111	=111	=111	=111	=111	=111	=111	=111	=111	=111	=111	=111	=111	=111	=111	=111	=111	=111	=111	=111
!	!	!	!	!	!	!LO:TX:t=P:problem=niepełna miara taktu	!	!	!	!	!	!	!	!	!LO:N:xstem:cue	!	!	!	!	!	!	!	!	!	!
1A_	.	1B	.	1g	.	4ryy	.	1A	.	1B	.	1g	.	.	4ff#\]	.	.	2A/	.	2A/	.	1r	.	1r	.
.	.	.	.	.	.	8gg\L	.	.	.	.	.	.	.	.	8gg\L	.	.	.	.	.	.	.	.	.	.
.	.	.	.	.	.	8ff#\J	.	.	.	.	.	.	.	.	8ff#\J	.	.	.	.	.	.	.	.	.	.
.	.	.	.	.	.	4ee\	.	.	.	.	.	.	.	.	4ee\	.	.	2r	.	2r	.	.	.	.	.
.	.	.	.	.	.	4dd\	.	.	.	.	.	.	.	.	4dd\	.	.	.	.	.	.	.	.	.	.
!	!	!	!	!	!	!LO:LB:g=original	!	!	!	!	!	!	!	!	!	!	!	!	!	!	!	!	!	!	!
=112	=112	=112	=112	=112	=112	=112	=112	=112	=112	=112	=112	=112	=112	=112	=112	=112	=112	=112	=112	=112	=112	=112	=112	=112	=112
1A_	.	2A/	.	4g/	.	2cc#\	.	1A	-men	2A\	-men	4g\	.	.	2cc#\	.	.	2A/	.	2A/	.	1r	.	1r	.
.	.	.	.	8f#/L	.	.	.	.	.	.	.	8f#\L	.	.	.	.	.	.	.	.	.	.	.	.	.
.	.	.	.	8e/J	.	.	.	.	.	.	.	8e\J	.	.	.	.	.	.	.	.	.	.	.	.	.
.	.	2f#\	.	4f#/	.	[2aa\	.	.	.	2f#\	a-	4f#\	.	.	2aa\	.	.	2r	.	2r	.	.	.	.	.
.	.	.	.	8g/L	.	.	.	.	.	.	.	8g\L	.	.	.	.	.	.	.	.	.	.	.	.	.
.	.	.	.	8a/J	.	.	.	.	.	.	.	8a\J	.	.	.	.	.	.	.	.	.	.	.	.	.
!	!	!	!	!	!	!	!	!	!	!LO:LB:g=original	!	!	!	!	!	!	!	!	!	!	!	!	!	!	!
=113	=113	=113	=113	=113	=113	=113	=113	=113	=113	=113	=113	=113	=113	=113	=113	=113	=113	=113	=113	=113	=113	=113	=113	=113	=113
!	!	!LO:TX:t=P:problem=niepełna miara taktu	!	!	!	!LO:N:xstem:cue	!	!	!	!	!	!	!	!	!	!	!	!	!	!	!	!	!	!	!
1A_	.	4ryy	.	[2b\	.	4aa\]	.	1A	a-	4f#\	.	2.b\	.	.	4aa\	.	.	2A/	.	2A/	.	1r	.	1r	.
.	.	8e\L	.	.	.	8gg\L	.	.	.	8e\L	.	.	.	.	8gg\L	.	.	.	.	.	.	.	.	.	.
.	.	8d\J	.	.	.	8ff#\J	.	.	.	8d\J	.	.	.	.	8ff#\J	.	.	.	.	.	.	.	.	.	.
.	.	[y2e\	.	4b\]	.	[2gg\	.	.	.	[2e\	.	.	.	.	[2gg\	.	.	2r	.	2r	.	.	.	.	.
.	.	.	.	8a\L	.	.	.	.	.	.	.	8a\L	.	.	.	.	.	.	.	.	.	.	.	.	.
.	.	.	.	8g\J	.	.	.	.	.	.	.	8g\J	.	.	.	.	.	.	.	.	.	.	.	.	.
=114	=114	=114	=114	=114	=114	=114	=114	=114	=114	=114	=114	=114	=114	=114	=114	=114	=114	=114	=114	=114	=114	=114	=114	=114	=114
!	!	!LO:N:xstem:cue	!	!	!	!LO:N:xstem:cue	!	!	!	!	!	!	!	!	!LO:N:xstem:cue	!	!	!	!	!	!	!	!	!	!
1A_	.	4e]y	.	[2a/	.	4gg\]	.	1A	.	4e\]	.	2.a\	.	.	4gg\]	.	.	2A/	.	2A/	.	1r	.	1r	.
.	.	8d\L	.	.	.	8ff#\L	.	.	.	8d\L	.	.	.	.	8ff#\L	.	.	.	.	.	.	.	.	.	.
.	.	8c#\J	.	.	.	8ee\J	.	.	.	8c#\J	.	.	.	.	8ee\J	.	.	.	.	.	.	.	.	.	.
!	!	!LO:LB:g=original	!	!	!	!	!	!	!	!	!	!	!	!	!	!	!	!	!	!LO:TX:t=P:problem=wykreślony takt	!	!	!	!	!
.	.	[y2d\	.	4a/]	.	[2ff#\	.	.	.	[2d\	.	.	.	.	[2ff#\	.	.	2r	.	2r	.	.	.	.	.
.	.	.	.	8g/L	.	.	.	.	.	.	.	8g\L	.	.	.	.	.	.	.	.	.	.	.	.	.
.	.	.	.	8f#/J	.	.	.	.	.	.	.	8f#\J	.	.	.	.	.	.	.	.	.	.	.	.	.
!	!	!	!	!	!	!	!	!	!	!	!	!LO:LB:g=original	!	!	!	!	!	!	!	!	!	!	!	!	!
=115	=115	=115	=115	=115	=115	=115	=115	=115	=115	=115	=115	=115	=115	=115	=115	=115	=115	=115	=115	=115	=115	=115	=115	=115	=115
!	!	!LO:N:xstem:cue	!	!	!	!LO:N:xstem:cue	!	!	!	!	!	!	!	!	!	!	!	!	!	!	!	!	!	!	!
!	!	!	!	!	!	!	!	!	!	!	!	!	!	!	!LO:N:cue	!	!	!	!	!	!	!	!	!	!
2A\_	.	4d\]y	.	[2g/	.	4ff#\]	.	1A	.	4d\]	.	2.g\	.	.	4ff#/]	.	.	2A/	.	2A/	.	1r	.	1r	.
.	.	8c#\L	.	.	.	8ee\L	.	.	.	8c#\L	.	.	.	.	8ee\L	.	.	.	.	.	.	.	.	.	.
.	.	8B\J	.	.	.	8dd\J	.	.	.	8B\J	.	.	.	.	8dd\J	.	.	.	.	.	.	.	.	.	.
2A\_	.	2c#\	.	4g/]	.	[2ee\	.	.	.	2c#\	.	.	.	.	[2ee\	.	.	2r	.	2r	.	.	.	.	.
.	.	.	.	8f#/L	.	.	.	.	.	.	.	8f#\L	.	.	.	.	.	.	.	.	.	.	.	.	.
.	.	.	.	8e/J	.	.	.	.	.	.	.	8e\J	.	.	.	.	.	.	.	.	.	.	.	.	.
=116	=116	=116	=116	=116	=116	=116	=116	=116	=116	=116	=116	=116	=116	=116	=116	=116	=116	=116	=116	=116	=116	=116	=116	=116	=116
!	!	!	!	!	!	!LO:N:xstem:cue	!	!	!	!	!	!	!	!	!LO:N:xstem:cue	!	!	!	!	!	!	!	!	!	!
1A]	.	2c#\	.	[2f#/	.	4ee\]	.	1A	.	2c#\	.	2.f#\	.	.	4ee/]	.	.	2r	.	2r	.	2r	.	2r	.
!	!	!	!	!	!	!	!	!	!	!	!	!	!	!	!LO:N:vis=4	!	!	!	!	!	!	!	!	!	!
.	.	.	.	.	.	8dd\L	.	.	.	.	.	.	.	.	8dd\	.	.	.	.	.	.	.	.	.	.
!	!	!	!	!	!	!	!	!	!	!	!	!	!	!	!LO:N:vis=4	!	!	!	!	!	!	!	!	!	!
.	.	.	.	.	.	8cc#\J	.	.	.	.	.	.	.	.	8cc#\	.	.	.	.	.	.	.	.	.	.
.	.	2A/	.	4f#/]	.	2dd\	.	.	.	2A\	.	.	.	.	2dd\	.	.	2d\	.	2f#\	.	2f#/	.	2dd\	.
.	.	.	.	8e/L	.	.	.	.	.	.	.	8e\L	.	.	.	.	.	.	.	.	.	.	.	.	.
.	.	.	.	8d/J	.	.	.	.	.	.	.	8d\J	.	.	.	.	.	.	.	.	.	.	.	.	.
!	!	!	!	!	!	!	!	!	!	!	!	!	!	!	!	!	!	!	!	!	!	!LO:LB:g=original	!	!	!
=117	=117	=117	=117	=117	=117	=117	=117	=117	=117	=117	=117	=117	=117	=117	=117	=117	=117	=117	=117	=117	=117	=117	=117	=117	=117
2A\	.	2A/	.	1e	.	2dd\	.	2.A\	.	2.A/	.	1e	.	.	(2dd\	.	.	2d\	.	2e\	.	1e	.	2dd\	.
!	!	!	!	!	!	!	!	!	!	!	!	!	!	!	!	!	!	!	!	!LO:TX:a:t=d:note=korekta	!	!	!	!	!
4r	.	4a\	.	.	.	2cc#\	.	.	.	.	.	.	.	.	2cc#\)	.	.	2A/	.	2e\	.	.	.	2cc#\	.
4Gn\	.	4g\	.	.	.	.	.	4Gn\	-men	4G/	.	.	.	.	.	.	.	.	.	.	.	.	.	.	.
!	!	!	!	!	!	!	!	!	!	!	!	!	!	!	!LO:LB:g=original	!	!	!	!	!	!	!	!	!	!
=118	=118	=118	=118	=118	=118	=118	=118	=118	=118	=118	=118	=118	=118	=118	=118	=118	=118	=118	=118	=118	=118	=118	=118	=118	=118
4F#\	.	4a\	.	4f#/	.	4dd\	.	4F#\	a-	4A/	.	4f#\	.	.	4dd\	-men	.	4d\	.	4f#\	.	4f#/	.	4dd\	.
4E\	.	4g\	.	4g/	.	4ee\	.	4E\	.	4G/	.	4g\	.	.	(4ee\	a-	.	4A/	.	4e\	.	4g/	.	4ee\	.
4D\	.	4f#\	.	4a/	.	4ff#\	.	4D\	.	4F#/	.	4a\	.	.	4ff#\)	.	.	4F#/	.	4d\	.	4a/	.	4ff#\	.
4B\	.	4B/	.	4f#/	.	4dd#X\	.	4B\	-men	4B\	.	4f#\	.	.	4dd#X\	-men	.	4r	.	4r	.	4b/	.	4dd#X\	.
!	!	!	!	!LO:LB:g=original	!	!	!	!	!	!	!	!	!	!	!	!	!	!	!	!LO:LB:g=original	!	!	!	!	!
=119	=119	=119	=119	=119	=119	=119	=119	=119	=119	=119	=119	=119	=119	=119	=119	=119	=119	=119	=119	=119	=119	=119	=119	=119	=119
*	*	*	*	*	*	*	*	*	*ij	*	*	*	*	*	*	*ij	*	*	*	*	*	*	*	*	*
!	!	!	!	!	!	!	!	!	!	!	!	!	!	!	!	!	!	!LO:TX:a:t=1.	!	!LO:TX:a:t=1	!	!	!	!	!
4G\	.	2B/	.	4g/	.	4ee\	.	4G\	a-	2B\	-men	4g\	.	.	(4ee\	a-	.	1r	.	1r	.	2b\	.	4ee\	.
4F#\	.	.	.	4a/	.	4ff#\	.	4F#\	.	.	.	4a\	.	.	4ff#\	.	.	.	.	.	.	.	.	4ff#\	.
4E\	.	4r	.	4b/	.	4gg\	.	4E\	.	4r	.	4b\	.	.	4gg\)	.	.	.	.	.	.	4r	.	4gg\	.
!	!	!	!	!	!	!	!	!	!	!	!	!	!	!	!LO:SIC:v:s=4dd#X\	!	!	!	!	!	!	!LO:SIC:v:s=4b\	!	!LO:SIC:v:s=4dd#X\	!
4B\	.	4B/	.	4f#/	.	4dd#X\	.	4B\	-men	4B\	a-	4f#\	.	.	4cc#X\	-men	.	.	.	.	.	4cc#\	.	4dd\	.
!LO:LB:g=original	!	!	!	!	!	!LO:LB:g=original	!	!LO:LB:g=original	!	!LO:LB:g=original	!	!	!	!	!	!	!	!	!	!	!	!	!	!LO:LB:g=original	!
=120	=120	=120	=120	=120	=120	=120	=120	=120	=120	=120	=120	=120	=120	=120	=120	=120	=120	=120	=120	=120	=120	=120	=120	=120	=120
*	*	*	*	*	*	*	*	*	*Xij	*	*	*	*	*	*	*	*	*	*	*	*	*	*	*	*
4G\	.	2B/	.	4g/	.	4ee\	.	(4G\	a-	2B\	-men	4g\	.	.	(4ee\	a-	.	2r	.	2r	.	2.b\	.	4ee\	.
4F#\	.	.	.	4a/	.	4ff#\	.	4F#\)	.	.	.	4a\	.	.	4ff#\	.	.	.	.	.	.	.	.	4ff#\	.
4E\	.	4r	.	4b/	.	4gg\	.	4E\	.	4r	.	4b\	.	.	4gg\)	.	.	4r	.	4r	.	.	.	4gg\	.
4A\	.	4a\	.	4e/	.	4cc#\	.	4A\	-men	4B\	a-	4e\	.	.	4cc#X\	-men	.	4A/	.	4e\	.	4a\	.	4cc#\	.
*	*	*	*	*	*	*	*	*	*ij	*	*	*	*	*	*	*	*	*	*	*	*	*	*	*	*
!	!	!	!	!	!	!	!	!	!	!	!	!	!	!	!	!	!	!LO:LB:g=original	!	!	!	!	!	!	!
=121	=121	=121	=121	=121	=121	=121	=121	=121	=121	=121	=121	=121	=121	=121	=121	=121	=121	=121	=121	=121	=121	=121	=121	=121	=121
4F#\	.	2a\	.	4f#/	.	4ddn\	.	(4F#\	a-	2A\	-men	4f#\	.	.	(4dd\	a-	.	4d\	.	4f#\	.	1a	.	4dd\	.
4E\	.	.	.	4g/	.	4ee\	.	4E\	.	.	.	4g\	.	.	4ee\	.	.	4e\	.	4g\	.	.	.	4ee\	.
4D\	.	4r	.	4a/	.	4ff#\	.	4D\)	.	4r	.	2a\	.	.	4ff#\)	.	.	4f#\	.	4a\	.	.	.	4ff#\	.
4A\	.	4a\	.	4e/	.	4cc#\	.	4A\	-men	4A/	a-	.	.	.	4cc#\	-men	.	4A/	.	4e\	.	.	.	4cc#\	.
!	!	!	!	!	!	!	!	!	!	!	!	!LO:LB:g=original	!	!	!	!	!	!	!	!	!	!	!	!	!
=122	=122	=122	=122	=122	=122	=122	=122	=122	=122	=122	=122	=122	=122	=122	=122	=122	=122	=122	=122	=122	=122	=122	=122	=122	=122
4F#\	.	4a\	.	4f#/	.	4dd\	.	(4F#\	a-	4A/	.	2.a\	.	.	(4dd\	a-	.	2d\	.	2f#\	.	2.a\	.	4dd\	.
4E\	.	4g\	.	4g/	.	4ee\	.	4E\)	.	4G/	.	.	.	.	4ee\)	.	.	.	.	.	.	.	.	4ee\	.
4D\	.	4f#\	.	4a/	.	4ff#\	.	4D\	.	4F#/	.	.	.	.	2ff#\	-men	.	2d\	.	2f#\	.	.	.	2ff#\	.
*	*	*	*	*	*	*	*	*	*	*	*	*	*	*	*	*Xij	*	*	*	*	*	*	*	*	*
4B\	.	4b\	.	4dd\	.	4ddd\	.	4B\	-men	4d\	.	4b\	-men	.	.	.	.	.	.	.	.	4dd\	.	.	.
*	*	*	*	*	*	*	*	*	*Xij	*	*	*	*	*	*	*	*	*	*	*	*	*	*	*	*
!	!	!LO:LB:g=original	!	!	!	!	!	!	!	!	!	!	!	!	!	!	!	!	!	!	!	!	!	!	!
=123	=123	=123	=123	=123	=123	=123	=123	=123	=123	=123	=123	=123	=123	=123	=123	=123	=123	=123	=123	=123	=123	=123	=123	=123	=123
!	!	!	!	!	!	!	!	!	!	!	!	!	!	!	!	!	!	!	!	!LO:TX:a:t=d:note=korekta	!	!	!	!	!
2G\	.	2b\	.	8dd\L	.	8ee\L	.	2G\	a-	(2d\	.	(2b\	a-	.	1ee	A-	.	2d\	.	2e\	.	2dd\	.	1ee	.
.	.	.	.	8ee\	.	8ddd\	.	.	.	.	.	.	.	.	.	.	.	.	.	.	.	.	.	.	.
.	.	.	.	8dd\	.	8ee\	.	.	.	.	.	.	.	.	.	.	.	.	.	.	.	.	.	.	.
.	.	.	.	8ee\J	.	8ddd\J	.	.	.	.	.	.	.	.	.	.	.	.	.	.	.	.	.	.	.
!	!	!	!	!	!	!	!	!	!	!	!	!	!	!	!	!	!	!	!	!LO:TX:a:t=d:note=korekta	!	!	!	!	!
!	!	!	!	!	!LO:DY:b:t=fortyſsime	!	!	!	!	!	!	!	!	!	!	!	!	!	!	!	!	!	!	!	!
2A\	.	2a\	.	8cc#\L	ff	8ee\L	.	2A\	.	2c#\)	.	2a\)	.	.	.	.	.	2A/	.	2e\	.	2cc#\	.	.	.
.	.	.	.	8ee\	.	8ccc#\	.	.	.	.	.	.	.	.	.	.	.	.	.	.	.	.	.	.	.
.	.	.	.	8cc#\	.	8ee\	.	.	.	.	.	.	.	.	.	.	.	.	.	.	.	.	.	.	.
.	.	.	.	8ee\J	.	8ccc#\J	.	.	.	.	.	.	.	.	.	.	.	.	.	.	.	.	.	.	.
=124	=124	=124	=124	=124	=124	=124	=124	=124	=124	=124	=124	=124	=124	=124	=124	=124	=124	=124	=124	=124	=124	=124	=124	=124	=124
2d\	.	2d\ 2a	.	2d/ 2a 2ff#	.	2ff#\ 2ddd	.	2d\	-men	2d\	-men	2a\	-men	.	2ff#\	-men	.	2d\	.	2f#\	.	2dd\	.	2ff#\	.
2A\	.	2e\ 2a	.	2a/ 2ee	.	2ee\ 2ccc#	.	2A\	a-	2c#\	a-	2a\	a-	.	2ee\	a-	.	2A/	.	2e\	.	2cc#\	.	2ee\	.
=125	=125	=125	=125	=125	=125	=125	=125	=125	=125	=125	=125	=125	=125	=125	=125	=125	=125	=125	=125	=125	=125	=125	=125	=125	=125
2D\	.	2d\ 2a	.	2d/ 2a 2ff#	.	2ff#\ 2ddd	.	2D/	-men	2d\	-men.	2a\	-men.	.	2ff#\	-men.	.	2d\	.	2f#\	.	2dd\	.	2ff#\	.
2r	.	2r	.	2r	.	2r	.	2r	.	2r	.	2r	.	.	2r	.	.	2r	.	2r	.	2r	.	2r	.
==	==	==	==	==	==	==	==	==	==	==	==	==	==	==	==	==	==	==	==	==	==	==	==	==	==
*-	*-	*-	*-	*-	*-	*-	*-	*-	*-	*-	*-	*-	*-	*-	*-	*-	*-	*-	*-	*-	*-	*-	*-	*-	*-
!!!system-decoration: [(g1)][(g2)][(g3)][(g4)]s12
!!!ENC: Tomasz Grochalski
!!!END: 2020-10-03
!!!AIN: 1 alto 1 bass 2 cor 2 oboe 1 organ 1 soprn 1 tenor 1 viola 2 violn
!!!ENC: Kamil Watkowski
!!!END: 2022-02-06
!!!RDF**kern: > = above
!!!RDF**kern: < = below
!!!RDF**kern: | = vertical stroke
